(G-CODE GENERATED BY FLATCAM v8.96 - www.flatcam.org - Version Date: 2019/08/23)

(Name: copper_top.gbr_bbox_cnc)
(Type: G-code from Geometry)
(Units: MM)

(Created on Sunday, 27 October 2019 at 15:40)

(TOOL DIAMETER: 2.4 mm)
(Feedrate: 30.0 mm/min)
(Feedrate_Z: 30.0 mm/min)
(Feedrate rapids 79.9998 mm/min)

(Z_Cut: -3.0 mm)
(DepthPerCut: 0.5 mm <=>6 passes)
(Z_Move: 4.0 mm)
(Z Toolchange: 12.7 mm)
(X,Y Toolchange: 0.0000, 0.0000 mm)
(Z Start: None mm)
(Z End: 12.7 mm)
(Steps per circle: 128)
(Postprocessor Geometry: default)

(X range:    2.5556 ...   23.5298  mm)
(Y range:    1.8702 ...   24.7998  mm)

(Spindle Speed: None RPM)

G21
G90
G94

G01 F30.00
G00 Z4.0000

M03
G00 X2.5556 Y1.8702
G01 F30.00
G01 Z-0.5000
G01 F30.00
G01 X23.5298 Y1.8702
G01 X23.5298 Y24.7998
G01 X2.5556 Y24.7998
G01 X2.5556 Y1.8702
G00 X2.5556 Y1.8702
G01 F30.00
G01 Z-1.0000
G01 F30.00
G01 X23.5298 Y1.8702
G01 X23.5298 Y24.7998
G01 X2.5556 Y24.7998
G01 X2.5556 Y1.8702
G00 X2.5556 Y1.8702
G01 F30.00
G01 Z-1.5000
G01 F30.00
G01 X23.5298 Y1.8702
G01 X23.5298 Y24.7998
G01 X2.5556 Y24.7998
G01 X2.5556 Y1.8702
G00 X2.5556 Y1.8702
G01 F30.00
G01 Z-2.0000
G01 F30.00
G01 X23.5298 Y1.8702
G01 X23.5298 Y24.7998
G01 X2.5556 Y24.7998
G01 X2.5556 Y1.8702
G00 X2.5556 Y1.8702
G01 F30.00
G01 Z-2.5000
G01 F30.00
G01 X23.5298 Y1.8702
G01 X23.5298 Y24.7998
G01 X2.5556 Y24.7998
G01 X2.5556 Y1.8702
G00 X2.5556 Y1.8702
G01 F30.00
G01 Z-3.0000
G01 F30.00
G01 X23.5298 Y1.8702
G01 X23.5298 Y24.7998
G01 X2.5556 Y24.7998
G01 X2.5556 Y1.8702
G00 Z4.0000
M05
G00 Z4.0000
G00 Z12.70
G00 X0.0 Y0.0

M02