(G-CODE GENERATED BY FLATCAM v8.96 - www.flatcam.org - Version Date: 2019/08/23)

(Name: copper_top.gbr_1_iso_cnc)
(Type: G-code from Geometry)
(Units: MM)

(Created on Sunday, 27 October 2019 at 01:07)

(TOOL DIAMETER: 0.2 mm)
(Feedrate: 50.0 mm/min)
(Feedrate_Z: 50.0 mm/min)
(Feedrate rapids 79.9998 mm/min)

(Z_Cut: -0.015 mm)
(Z_Move: 1.0 mm)
(Z Toolchange: 12.7 mm)
(X,Y Toolchange: 0.0000, 0.0000 mm)
(Z Start: None mm)
(Z End: 12.7 mm)
(Steps per circle: 128)
(Postprocessor Geometry: default)

(X range:    3.4553 ...   22.6301  mm)
(Y range:    2.7698 ...   23.9001  mm)

(Spindle Speed: None RPM)

G21
G90
G94

G01 F50.00
G00 Z1.0000

M03
G00 X3.4563 Y11.4699
G01 F50.00
G01 Z-0.0150
G01 F50.00
G01 X3.4553 Y11.4300
G01 X3.4565 Y11.3852
G01 X3.4596 Y11.3436
G01 X3.4650 Y11.3010
G01 X3.4724 Y11.2593
G01 X3.4806 Y11.2228
G01 X3.4917 Y11.1819
G01 X3.5049 Y11.1417
G01 X3.5200 Y11.1021
G01 X3.5371 Y11.0634
G01 X3.5560 Y11.0255
G01 X3.5768 Y10.9886
G01 X3.5993 Y10.9528
G01 X3.6254 Y10.9156
G01 X3.6523 Y10.8813
G01 X3.6804 Y10.8488
G01 X3.7080 Y10.8200
G01 X3.7405 Y10.7891
G01 X3.7726 Y10.7616
G01 X3.8036 Y10.7374
G01 X3.8408 Y10.7113
G01 X3.8766 Y10.6888
G01 X3.9135 Y10.6680
G01 X3.9514 Y10.6491
G01 X3.9890 Y10.6325
G01 X4.0297 Y10.6169
G01 X4.0699 Y10.6037
G01 X4.1108 Y10.5926
G01 X4.1521 Y10.5834
G01 X4.1939 Y10.5763
G01 X4.2359 Y10.5712
G01 X4.2781 Y10.5682
G01 X4.3443 Y10.5673
G01 X4.3443 Y7.9200
G01 X4.3451 Y7.8864
G01 X4.3481 Y7.8460
G01 X4.3520 Y7.8145
G01 X4.3580 Y7.7789
G01 X4.3658 Y7.7436
G01 X4.3768 Y7.7041
G01 X4.3865 Y7.6745
G01 X4.3994 Y7.6408
G01 X4.4159 Y7.6035
G01 X4.4324 Y7.5711
G01 X4.4500 Y7.5401
G01 X4.4670 Y7.5133
G01 X4.4894 Y7.4813
G01 X4.5125 Y7.4519
G01 X4.5366 Y7.4242
G01 X4.5598 Y7.3998
G01 X8.6698 Y3.2898
G01 X8.6978 Y3.2633
G01 X8.7252 Y3.2398
G01 X8.7513 Y3.2194
G01 X8.7793 Y3.1997
G01 X8.8097 Y3.1803
G01 X8.8454 Y3.1601
G01 X8.8735 Y3.1459
G01 X8.9062 Y3.1313
G01 X8.9445 Y3.1165
G01 X8.9741 Y3.1068
G01 X9.0089 Y3.0970
G01 X9.0464 Y3.0885
G01 X9.0796 Y3.0827
G01 X9.1154 Y3.0781
G01 X9.1564 Y3.0751
G01 X9.1900 Y3.0743
G01 X13.2347 Y3.0743
G01 X13.2733 Y3.0377
G01 X13.3121 Y3.0044
G01 X13.3500 Y2.9749
G01 X13.3942 Y2.9438
G01 X13.4374 Y2.9166
G01 X13.4819 Y2.8915
G01 X13.5275 Y2.8687
G01 X13.5731 Y2.8486
G01 X13.6219 Y2.8299
G01 X13.6704 Y2.8140
G01 X13.7197 Y2.8005
G01 X13.7670 Y2.7899
G01 X13.8149 Y2.7815
G01 X13.8656 Y2.7751
G01 X13.9165 Y2.7713
G01 X13.9700 Y2.7698
G01 X14.0235 Y2.7713
G01 X14.0744 Y2.7751
G01 X14.1251 Y2.7815
G01 X14.1730 Y2.7899
G01 X14.2203 Y2.8005
G01 X14.2696 Y2.8140
G01 X14.3181 Y2.8299
G01 X14.3669 Y2.8486
G01 X14.4169 Y2.8708
G01 X14.4581 Y2.8915
G01 X14.5026 Y2.9166
G01 X14.5458 Y2.9438
G01 X14.5900 Y2.9749
G01 X14.6313 Y3.0071
G01 X14.6703 Y3.0410
G01 X14.7055 Y3.0745
G01 X14.7390 Y3.1097
G01 X14.7725 Y3.1483
G01 X14.8051 Y3.1900
G01 X14.8362 Y3.2342
G01 X14.8609 Y3.2732
G01 X14.8861 Y3.3175
G01 X14.9093 Y3.3633
G01 X14.9314 Y3.4131
G01 X14.9501 Y3.4619
G01 X14.9660 Y3.5104
G01 X14.9795 Y3.5597
G01 X14.9901 Y3.6070
G01 X14.9985 Y3.6549
G01 X15.0049 Y3.7056
G01 X15.0090 Y3.7614
G01 X15.0101 Y3.8100
G01 X15.0090 Y3.8586
G01 X15.0049 Y3.9138
G01 X14.9985 Y3.9651
G01 X14.9897 Y4.0153
G01 X14.9784 Y4.0651
G01 X14.9660 Y4.1096
G01 X14.9501 Y4.1581
G01 X14.9314 Y4.2069
G01 X14.9093 Y4.2567
G01 X14.8861 Y4.3025
G01 X14.8611 Y4.3464
G01 X14.8362 Y4.3858
G01 X14.8051 Y4.4300
G01 X14.7725 Y4.4717
G01 X14.7423 Y4.5067
G01 X14.7072 Y4.5437
G01 X14.6703 Y4.5790
G01 X14.6279 Y4.6156
G01 X14.5876 Y4.6469
G01 X14.5499 Y4.6735
G01 X14.5068 Y4.7009
G01 X14.4625 Y4.7261
G01 X14.4167 Y4.7493
G01 X14.3658 Y4.7719
G01 X14.3181 Y4.7901
G01 X14.2743 Y4.8046
G01 X14.2251 Y4.8184
G01 X14.1730 Y4.8301
G01 X14.1202 Y4.8392
G01 X14.0744 Y4.8449
G01 X14.0235 Y4.8487
G01 X13.9700 Y4.8502
G01 X13.9165 Y4.8487
G01 X13.8662 Y4.8449
G01 X13.8198 Y4.8392
G01 X13.7670 Y4.8301
G01 X13.7149 Y4.8184
G01 X13.6704 Y4.8060
G01 X13.6219 Y4.7901
G01 X13.5731 Y4.7714
G01 X13.5233 Y4.7493
G01 X13.4819 Y4.7285
G01 X13.4374 Y4.7034
G01 X13.3942 Y4.6762
G01 X13.3484 Y4.6440
G01 X13.3087 Y4.6129
G01 X13.2733 Y4.5823
G01 X13.2347 Y4.5457
G01 X9.4947 Y4.5457
G01 X5.8157 Y8.2247
G01 X5.8157 Y10.5673
G01 X5.8868 Y10.5685
G01 X5.9284 Y10.5716
G01 X5.9710 Y10.5770
G01 X6.0104 Y10.5839
G01 X6.0492 Y10.5926
G01 X6.0901 Y10.6037
G01 X6.1303 Y10.6169
G01 X6.1744 Y10.6339
G01 X6.2128 Y10.6511
G01 X6.2508 Y10.6703
G01 X6.2872 Y10.6910
G01 X6.3233 Y10.7141
G01 X6.3564 Y10.7374
G01 X6.3907 Y10.7643
G01 X6.4232 Y10.7924
G01 X6.4520 Y10.8200
G01 X6.4796 Y10.8488
G01 X6.5073 Y10.8808
G01 X6.5346 Y10.9156
G01 X6.5579 Y10.9487
G01 X6.5807 Y10.9844
G01 X6.6017 Y11.0212
G01 X6.6209 Y11.0592
G01 X6.6395 Y11.1010
G01 X6.6534 Y11.1370
G01 X6.6668 Y11.1772
G01 X6.6782 Y11.2180
G01 X6.6876 Y11.2593
G01 X6.6957 Y11.3059
G01 X6.7003 Y11.3430
G01 X6.7035 Y11.3852
G01 X6.7047 Y11.4300
G01 X6.7035 Y11.4748
G01 X6.7004 Y11.5164
G01 X6.6957 Y11.5541
G01 X6.6881 Y11.5984
G01 X6.6782 Y11.6420
G01 X6.6683 Y11.6781
G01 X6.6551 Y11.7183
G01 X6.6395 Y11.7590
G01 X6.6209 Y11.8008
G01 X6.6040 Y11.8345
G01 X6.5832 Y11.8714
G01 X6.5607 Y11.9072
G01 X6.5335 Y11.9459
G01 X6.5077 Y11.9787
G01 X6.4829 Y12.0075
G01 X6.4520 Y12.0400
G01 X6.4195 Y12.0709
G01 X6.3874 Y12.0984
G01 X6.3564 Y12.1226
G01 X6.3192 Y12.1487
G01 X6.2876 Y12.1687
G01 X6.2508 Y12.1897
G01 X6.2086 Y12.2109
G01 X6.1710 Y12.2275
G01 X6.1350 Y12.2414
G01 X6.0901 Y12.2563
G01 X6.0492 Y12.2674
G01 X6.0104 Y12.2761
G01 X5.9661 Y12.2837
G01 X5.9290 Y12.2883
G01 X5.8868 Y12.2915
G01 X5.8420 Y12.2927
G01 X4.3155 Y12.2927
G01 X4.2732 Y12.2915
G01 X4.2316 Y12.2884
G01 X4.1939 Y12.2837
G01 X4.1496 Y12.2761
G01 X4.1108 Y12.2674
G01 X4.0652 Y12.2548
G01 X4.0250 Y12.2414
G01 X3.9856 Y12.2261
G01 X3.9472 Y12.2089
G01 X3.9092 Y12.1897
G01 X3.8728 Y12.1690
G01 X3.8408 Y12.1487
G01 X3.8021 Y12.1215
G01 X3.7693 Y12.0957
G01 X3.7405 Y12.0709
G01 X3.7080 Y12.0400
G01 X3.6804 Y12.0112
G01 X3.6496 Y11.9754
G01 X3.6254 Y11.9444
G01 X3.6021 Y11.9113
G01 X3.5793 Y11.8756
G01 X3.5583 Y11.8388
G01 X3.5371 Y11.7966
G01 X3.5205 Y11.7590
G01 X3.5066 Y11.7230
G01 X3.4917 Y11.6781
G01 X3.4806 Y11.6372
G01 X3.4719 Y11.5984
G01 X3.4650 Y11.5590
G01 X3.4597 Y11.5170
G01 X3.4563 Y11.4699
G00 Z1.0000
G00 X3.4563 Y14.0099
G01 F50.00
G01 Z-0.0150
G01 F50.00
G01 X3.4553 Y13.9700
G01 X3.4562 Y13.9301
G01 X3.4596 Y13.8836
G01 X3.4643 Y13.8459
G01 X3.4724 Y13.7993
G01 X3.4818 Y13.7580
G01 X3.4932 Y13.7172
G01 X3.5066 Y13.6770
G01 X3.5205 Y13.6410
G01 X3.5371 Y13.6034
G01 X3.5560 Y13.5655
G01 X3.5768 Y13.5286
G01 X3.5993 Y13.4928
G01 X3.6254 Y13.4556
G01 X3.6496 Y13.4246
G01 X3.6804 Y13.3888
G01 X3.7080 Y13.3600
G01 X3.7405 Y13.3291
G01 X3.7726 Y13.3016
G01 X3.8036 Y13.2774
G01 X3.8367 Y13.2541
G01 X3.8724 Y13.2313
G01 X3.9092 Y13.2103
G01 X3.9469 Y13.1912
G01 X3.9901 Y13.1720
G01 X4.0297 Y13.1569
G01 X4.0699 Y13.1437
G01 X4.1108 Y13.1326
G01 X4.1496 Y13.1239
G01 X4.1890 Y13.1170
G01 X4.2310 Y13.1117
G01 X4.2732 Y13.1085
G01 X4.3180 Y13.1073
G01 X5.8420 Y13.1073
G01 X5.8819 Y13.1082
G01 X5.9290 Y13.1117
G01 X5.9661 Y13.1163
G01 X6.0079 Y13.1234
G01 X6.0492 Y13.1326
G01 X6.0948 Y13.1452
G01 X6.1303 Y13.1569
G01 X6.1699 Y13.1720
G01 X6.2086 Y13.1891
G01 X6.2508 Y13.2103
G01 X6.2924 Y13.2343
G01 X7.3153 Y13.2343
G01 X10.6689 Y9.8807
G01 X10.6689 Y9.4996
G01 X10.6700 Y9.4598
G01 X10.6728 Y9.4231
G01 X10.6775 Y9.3855
G01 X10.6836 Y9.3510
G01 X10.6912 Y9.3171
G01 X10.7010 Y9.2810
G01 X10.7143 Y9.2409
G01 X10.7264 Y9.2095
G01 X10.7410 Y9.1764
G01 X10.7600 Y9.1387
G01 X10.7782 Y9.1066
G01 X10.7958 Y9.0788
G01 X10.8202 Y9.0443
G01 X10.8429 Y9.0154
G01 X10.8644 Y8.9903
G01 X10.8936 Y8.9597
G01 X10.9171 Y8.9374
G01 X10.9453 Y8.9129
G01 X10.9762 Y8.8886
G01 X11.0051 Y8.8682
G01 X11.0409 Y8.8456
G01 X11.0734 Y8.8273
G01 X11.1068 Y8.8106
G01 X11.1399 Y8.7960
G01 X11.1713 Y8.7839
G01 X11.2067 Y8.7720
G01 X11.2427 Y8.7620
G01 X11.2814 Y8.7532
G01 X11.3159 Y8.7471
G01 X11.3530 Y8.7425
G01 X11.3951 Y8.7393
G01 X11.4325 Y8.7385
G01 X11.4649 Y8.7393
G01 X11.5021 Y8.7420
G01 X11.5392 Y8.7464
G01 X11.5786 Y8.7532
G01 X11.6173 Y8.7620
G01 X11.6533 Y8.7720
G01 X11.6841 Y8.7822
G01 X11.7190 Y8.7955
G01 X11.7532 Y8.8106
G01 X11.7866 Y8.8273
G01 X11.8230 Y8.8478
G01 X11.8549 Y8.8682
G01 X11.8838 Y8.8886
G01 X11.9142 Y8.9125
G01 X11.9429 Y8.9374
G01 X11.9682 Y8.9614
G01 X11.9956 Y8.9903
G01 X12.0199 Y9.0187
G01 X12.0427 Y9.0482
G01 X12.0614 Y9.0747
G01 X12.0815 Y9.1062
G01 X12.1000 Y9.1387
G01 X12.1170 Y9.1722
G01 X12.1336 Y9.2095
G01 X12.1474 Y9.2455
G01 X12.1590 Y9.2810
G01 X12.1688 Y9.3171
G01 X12.1764 Y9.3510
G01 X12.1825 Y9.3855
G01 X12.1871 Y9.4226
G01 X12.1900 Y9.4598
G01 X12.1911 Y9.4996
G01 X12.1911 Y10.8204
G01 X12.1903 Y10.8553
G01 X12.1871 Y10.8974
G01 X12.1825 Y10.9345
G01 X12.1764 Y10.9690
G01 X12.1676 Y11.0077
G01 X12.1590 Y11.0390
G01 X12.1474 Y11.0745
G01 X12.1322 Y11.1139
G01 X12.1170 Y11.1478
G01 X12.1023 Y11.1770
G01 X12.0815 Y11.2138
G01 X12.0614 Y11.2453
G01 X12.0410 Y11.2742
G01 X12.0171 Y11.3046
G01 X11.9956 Y11.3297
G01 X11.9664 Y11.3603
G01 X11.9393 Y11.3860
G01 X11.9109 Y11.4103
G01 X11.8838 Y11.4314
G01 X11.8549 Y11.4518
G01 X11.8234 Y11.4719
G01 X11.7909 Y11.4904
G01 X11.7532 Y11.5094
G01 X11.7201 Y11.5240
G01 X11.6841 Y11.5378
G01 X11.6533 Y11.5480
G01 X11.6173 Y11.5580
G01 X11.5786 Y11.5668
G01 X11.5441 Y11.5729
G01 X11.5021 Y11.5780
G01 X11.4649 Y11.5807
G01 X11.4300 Y11.5815
G01 X11.3951 Y11.5807
G01 X11.3579 Y11.5780
G01 X11.3159 Y11.5729
G01 X11.2814 Y11.5668
G01 X11.2427 Y11.5580
G01 X11.2114 Y11.5494
G01 X11.1759 Y11.5378
G01 X11.1399 Y11.5240
G01 X11.1166 Y11.5138
G01 X8.1402 Y14.4902
G01 X8.1122 Y14.5167
G01 X8.0848 Y14.5402
G01 X8.0587 Y14.5606
G01 X8.0267 Y14.5830
G01 X8.0003 Y14.5997
G01 X7.9689 Y14.6176
G01 X7.9365 Y14.6341
G01 X7.9004 Y14.6501
G01 X7.8655 Y14.6635
G01 X7.8312 Y14.6747
G01 X7.7964 Y14.6842
G01 X7.7611 Y14.6920
G01 X7.7304 Y14.6973
G01 X7.6946 Y14.7019
G01 X7.6586 Y14.7046
G01 X7.6200 Y14.7057
G01 X6.2924 Y14.7057
G01 X6.2508 Y14.7297
G01 X6.2086 Y14.7509
G01 X6.1699 Y14.7680
G01 X6.1350 Y14.7814
G01 X6.0948 Y14.7948
G01 X6.0540 Y14.8062
G01 X6.0079 Y14.8166
G01 X5.9710 Y14.8230
G01 X5.9290 Y14.8283
G01 X5.8868 Y14.8315
G01 X5.8420 Y14.8327
G01 X4.3180 Y14.8327
G01 X4.2732 Y14.8315
G01 X4.2316 Y14.8284
G01 X4.1939 Y14.8237
G01 X4.1473 Y14.8156
G01 X4.1060 Y14.8062
G01 X4.0652 Y14.7948
G01 X4.0250 Y14.7814
G01 X3.9890 Y14.7675
G01 X3.9472 Y14.7489
G01 X3.9092 Y14.7297
G01 X3.8728 Y14.7090
G01 X3.8408 Y14.6887
G01 X3.8036 Y14.6626
G01 X3.7726 Y14.6384
G01 X3.7368 Y14.6076
G01 X3.7080 Y14.5800
G01 X3.6771 Y14.5475
G01 X3.6496 Y14.5154
G01 X3.6254 Y14.4844
G01 X3.6021 Y14.4513
G01 X3.5793 Y14.4156
G01 X3.5560 Y14.3745
G01 X3.5371 Y14.3366
G01 X3.5205 Y14.2990
G01 X3.5066 Y14.2630
G01 X3.4932 Y14.2228
G01 X3.4818 Y14.1820
G01 X3.4724 Y14.1407
G01 X3.4650 Y14.0990
G01 X3.4597 Y14.0570
G01 X3.4563 Y14.0099
G00 Z1.0000
G00 X3.4563 Y16.5499
G01 F50.00
G01 Z-0.0150
G01 F50.00
G01 X3.4553 Y16.5100
G01 X3.4562 Y16.4701
G01 X3.4596 Y16.4236
G01 X3.4643 Y16.3859
G01 X3.4719 Y16.3416
G01 X3.4806 Y16.3028
G01 X3.4917 Y16.2619
G01 X3.5049 Y16.2217
G01 X3.5205 Y16.1810
G01 X3.5371 Y16.1434
G01 X3.5560 Y16.1055
G01 X3.5768 Y16.0686
G01 X3.5993 Y16.0328
G01 X3.6254 Y15.9956
G01 X3.6523 Y15.9613
G01 X3.6771 Y15.9325
G01 X3.7080 Y15.9000
G01 X3.7368 Y15.8724
G01 X3.7688 Y15.8447
G01 X3.8036 Y15.8174
G01 X3.8367 Y15.7941
G01 X3.8724 Y15.7713
G01 X3.9092 Y15.7503
G01 X3.9469 Y15.7312
G01 X3.9901 Y15.7120
G01 X4.0297 Y15.6969
G01 X4.0699 Y15.6837
G01 X4.1108 Y15.6726
G01 X4.1496 Y15.6639
G01 X4.1939 Y15.6563
G01 X4.2359 Y15.6512
G01 X4.2781 Y15.6482
G01 X4.3180 Y15.6473
G01 X5.8420 Y15.6473
G01 X5.8868 Y15.6485
G01 X5.9284 Y15.6516
G01 X5.9661 Y15.6563
G01 X6.0079 Y15.6634
G01 X6.0492 Y15.6726
G01 X6.0948 Y15.6852
G01 X6.1303 Y15.6969
G01 X6.1699 Y15.7120
G01 X6.2086 Y15.7291
G01 X6.2508 Y15.7503
G01 X6.2924 Y15.7743
G01 X13.1853 Y15.7743
G01 X14.2643 Y14.6953
G01 X14.2643 Y5.3200
G01 X14.2651 Y5.2864
G01 X14.2677 Y5.2503
G01 X14.2727 Y5.2096
G01 X14.2785 Y5.1764
G01 X14.2858 Y5.1436
G01 X14.2968 Y5.1041
G01 X14.3082 Y5.0699
G01 X14.3199 Y5.0396
G01 X14.3359 Y5.0035
G01 X14.3524 Y4.9711
G01 X14.3700 Y4.9401
G01 X14.3897 Y4.9093
G01 X14.4094 Y4.8813
G01 X14.4298 Y4.8552
G01 X14.4533 Y4.8278
G01 X14.4798 Y4.7998
G01 X15.4699 Y3.8098
G01 X15.4713 Y3.7565
G01 X15.4751 Y3.7056
G01 X15.4815 Y3.6549
G01 X15.4899 Y3.6070
G01 X15.5005 Y3.5597
G01 X15.5154 Y3.5057
G01 X15.5315 Y3.4573
G01 X15.5486 Y3.4131
G01 X15.5687 Y3.3675
G01 X15.5915 Y3.3219
G01 X15.6189 Y3.2736
G01 X15.6465 Y3.2301
G01 X15.6749 Y3.1900
G01 X15.7044 Y3.1521
G01 X15.7377 Y3.1133
G01 X15.7745 Y3.0745
G01 X15.8133 Y3.0377
G01 X15.8521 Y3.0044
G01 X15.8900 Y2.9749
G01 X15.9301 Y2.9465
G01 X15.9774 Y2.9166
G01 X16.0219 Y2.8915
G01 X16.0675 Y2.8687
G01 X16.1131 Y2.8486
G01 X16.1573 Y2.8315
G01 X16.2057 Y2.8154
G01 X16.2549 Y2.8016
G01 X16.3070 Y2.7899
G01 X16.3549 Y2.7815
G01 X16.4105 Y2.7746
G01 X16.4614 Y2.7710
G01 X16.5100 Y2.7698
G01 X16.5635 Y2.7713
G01 X16.6138 Y2.7751
G01 X16.6651 Y2.7815
G01 X16.7130 Y2.7899
G01 X16.7603 Y2.8005
G01 X16.8096 Y2.8140
G01 X16.8627 Y2.8315
G01 X16.9069 Y2.8486
G01 X16.9567 Y2.8707
G01 X17.0025 Y2.8939
G01 X17.0464 Y2.9189
G01 X17.0858 Y2.9438
G01 X17.1276 Y2.9731
G01 X17.1717 Y3.0075
G01 X17.2103 Y3.0410
G01 X17.2455 Y3.0745
G01 X17.2790 Y3.1097
G01 X17.3125 Y3.1483
G01 X17.3469 Y3.1924
G01 X17.3762 Y3.2342
G01 X17.4034 Y3.2774
G01 X17.4261 Y3.3175
G01 X17.4492 Y3.3631
G01 X17.4719 Y3.4142
G01 X17.4885 Y3.4573
G01 X17.5046 Y3.5057
G01 X17.5195 Y3.5597
G01 X17.5301 Y3.6070
G01 X17.5392 Y3.6598
G01 X17.5449 Y3.7056
G01 X17.5487 Y3.7565
G01 X17.5501 Y3.8100
G01 X17.5490 Y3.8586
G01 X17.5449 Y3.9144
G01 X17.5385 Y3.9651
G01 X17.5301 Y4.0130
G01 X17.5195 Y4.0603
G01 X17.5060 Y4.1096
G01 X17.4885 Y4.1627
G01 X17.4714 Y4.2069
G01 X17.4493 Y4.2567
G01 X17.4285 Y4.2981
G01 X17.4034 Y4.3426
G01 X17.3762 Y4.3858
G01 X17.3440 Y4.4316
G01 X17.3129 Y4.4713
G01 X17.2823 Y4.5067
G01 X17.2455 Y4.5455
G01 X17.2067 Y4.5823
G01 X17.1717 Y4.6125
G01 X17.1316 Y4.6440
G01 X17.0899 Y4.6735
G01 X17.0426 Y4.7034
G01 X16.9981 Y4.7285
G01 X16.9567 Y4.7493
G01 X16.9069 Y4.7714
G01 X16.8581 Y4.7901
G01 X16.8143 Y4.8046
G01 X16.7651 Y4.8184
G01 X16.7130 Y4.8301
G01 X16.6602 Y4.8392
G01 X16.6144 Y4.8449
G01 X16.5635 Y4.8487
G01 X16.5102 Y4.8501
G01 X15.7357 Y5.6247
G01 X15.7357 Y15.0000
G01 X15.7346 Y15.0386
G01 X15.7319 Y15.0746
G01 X15.7273 Y15.1104
G01 X15.7215 Y15.1436
G01 X15.7142 Y15.1764
G01 X15.7032 Y15.2159
G01 X15.6918 Y15.2501
G01 X15.6801 Y15.2804
G01 X15.6661 Y15.3123
G01 X15.6499 Y15.3446
G01 X15.6300 Y15.3799
G01 X15.6103 Y15.4107
G01 X15.5906 Y15.4387
G01 X15.5702 Y15.4648
G01 X15.5434 Y15.4958
G01 X15.5202 Y15.5202
G01 X14.0102 Y17.0302
G01 X13.9858 Y17.0534
G01 X13.9586 Y17.0771
G01 X13.9287 Y17.1006
G01 X13.9007 Y17.1203
G01 X13.8703 Y17.1397
G01 X13.8389 Y17.1576
G01 X13.8065 Y17.1741
G01 X13.7738 Y17.1887
G01 X13.7401 Y17.2018
G01 X13.7059 Y17.2132
G01 X13.6711 Y17.2230
G01 X13.6359 Y17.2310
G01 X13.6004 Y17.2373
G01 X13.5646 Y17.2419
G01 X13.5236 Y17.2449
G01 X13.4900 Y17.2457
G01 X6.2924 Y17.2457
G01 X6.2508 Y17.2697
G01 X6.2086 Y17.2909
G01 X6.1699 Y17.3080
G01 X6.1350 Y17.3214
G01 X6.0948 Y17.3348
G01 X6.0540 Y17.3462
G01 X6.0079 Y17.3566
G01 X5.9710 Y17.3630
G01 X5.9290 Y17.3683
G01 X5.8868 Y17.3715
G01 X5.8420 Y17.3727
G01 X4.3180 Y17.3727
G01 X4.2781 Y17.3718
G01 X4.2316 Y17.3684
G01 X4.1939 Y17.3637
G01 X4.1473 Y17.3556
G01 X4.1060 Y17.3462
G01 X4.0652 Y17.3348
G01 X4.0250 Y17.3214
G01 X3.9856 Y17.3061
G01 X3.9472 Y17.2889
G01 X3.9092 Y17.2697
G01 X3.8728 Y17.2490
G01 X3.8367 Y17.2259
G01 X3.8036 Y17.2026
G01 X3.7693 Y17.1757
G01 X3.7368 Y17.1476
G01 X3.7080 Y17.1200
G01 X3.6804 Y17.0912
G01 X3.6527 Y17.0592
G01 X3.6254 Y17.0244
G01 X3.6021 Y16.9913
G01 X3.5793 Y16.9556
G01 X3.5583 Y16.9188
G01 X3.5391 Y16.8808
G01 X3.5219 Y16.8424
G01 X3.5066 Y16.8030
G01 X3.4932 Y16.7628
G01 X3.4818 Y16.7220
G01 X3.4724 Y16.6807
G01 X3.4650 Y16.6390
G01 X3.4597 Y16.5970
G01 X3.4563 Y16.5499
G00 Z1.0000
G00 X10.6698 Y21.0153
G01 F50.00
G01 Z-0.0150
G01 F50.00
G01 X10.6689 Y20.9804
G01 X10.6689 Y19.6571
G01 X10.6697 Y19.6247
G01 X10.6724 Y19.5875
G01 X10.6768 Y19.5504
G01 X10.6836 Y19.5110
G01 X10.6912 Y19.4771
G01 X10.7024 Y19.4363
G01 X10.7143 Y19.4009
G01 X10.7264 Y19.3695
G01 X10.7410 Y19.3364
G01 X10.7577 Y19.3030
G01 X10.7782 Y19.2666
G01 X10.7986 Y19.2347
G01 X10.8190 Y19.2058
G01 X10.8433 Y19.1749
G01 X10.8644 Y19.1503
G01 X10.8901 Y19.1232
G01 X10.9171 Y19.0974
G01 X10.9453 Y19.0729
G01 X10.9762 Y19.0486
G01 X11.0092 Y19.0254
G01 X11.0366 Y19.0081
G01 X11.0691 Y18.9896
G01 X11.1026 Y18.9726
G01 X11.1399 Y18.9560
G01 X11.1759 Y18.9422
G01 X11.2114 Y18.9306
G01 X11.2475 Y18.9208
G01 X11.2814 Y18.9132
G01 X11.3159 Y18.9071
G01 X11.3530 Y18.9025
G01 X11.3951 Y18.8993
G01 X11.4325 Y18.8985
G01 X11.4649 Y18.8993
G01 X11.5021 Y18.9020
G01 X11.5392 Y18.9064
G01 X11.5786 Y18.9132
G01 X11.6173 Y18.9220
G01 X11.6533 Y18.9320
G01 X11.6841 Y18.9422
G01 X11.7190 Y18.9555
G01 X11.7532 Y18.9706
G01 X11.7866 Y18.9873
G01 X11.8230 Y19.0078
G01 X11.8549 Y19.0282
G01 X11.8838 Y19.0486
G01 X11.9109 Y19.0697
G01 X11.9393 Y19.0940
G01 X11.9682 Y19.1214
G01 X11.9956 Y19.1503
G01 X12.0199 Y19.1787
G01 X12.0410 Y19.2058
G01 X12.0614 Y19.2347
G01 X12.0815 Y19.2662
G01 X12.1000 Y19.2987
G01 X12.1170 Y19.3322
G01 X12.1336 Y19.3695
G01 X12.1474 Y19.4055
G01 X12.1576 Y19.4363
G01 X12.1676 Y19.4723
G01 X12.1759 Y19.5087
G01 X12.1825 Y19.5455
G01 X12.1873 Y19.5843
G01 X13.9725 Y19.5844
G01 X14.0036 Y19.5851
G01 X14.0397 Y19.5877
G01 X14.0804 Y19.5927
G01 X14.1136 Y19.5985
G01 X14.1464 Y19.6058
G01 X14.1859 Y19.6168
G01 X14.2201 Y19.6282
G01 X14.2504 Y19.6399
G01 X14.2823 Y19.6539
G01 X14.3146 Y19.6701
G01 X14.3461 Y19.6878
G01 X14.3767 Y19.7070
G01 X14.4087 Y19.7294
G01 X14.4381 Y19.7525
G01 X14.4658 Y19.7766
G01 X14.4902 Y19.7998
G01 X16.5102 Y21.8199
G01 X16.5635 Y21.8213
G01 X16.6138 Y21.8251
G01 X16.6651 Y21.8315
G01 X16.7130 Y21.8399
G01 X16.7651 Y21.8516
G01 X16.8143 Y21.8654
G01 X16.8627 Y21.8815
G01 X16.9103 Y21.9000
G01 X16.9569 Y21.9208
G01 X16.9981 Y21.9415
G01 X17.0426 Y21.9666
G01 X17.0858 Y21.9938
G01 X17.1276 Y22.0231
G01 X17.1713 Y22.0571
G01 X17.2067 Y22.0877
G01 X17.2455 Y22.1245
G01 X17.2790 Y22.1597
G01 X17.3156 Y22.2021
G01 X17.3469 Y22.2424
G01 X17.3735 Y22.2801
G01 X17.4009 Y22.3232
G01 X17.4261 Y22.3675
G01 X17.4493 Y22.4133
G01 X17.4719 Y22.4642
G01 X17.4885 Y22.5073
G01 X17.5046 Y22.5557
G01 X17.5195 Y22.6097
G01 X17.5301 Y22.6570
G01 X17.5385 Y22.7049
G01 X17.5454 Y22.7605
G01 X17.5487 Y22.8065
G01 X17.5501 Y22.8575
G01 X17.5490 Y22.9086
G01 X17.5449 Y22.9638
G01 X17.5385 Y23.0151
G01 X17.5301 Y23.0630
G01 X17.5195 Y23.1103
G01 X17.5046 Y23.1643
G01 X17.4885 Y23.2127
G01 X17.4714 Y23.2569
G01 X17.4493 Y23.3067
G01 X17.4261 Y23.3525
G01 X17.4011 Y23.3964
G01 X17.3735 Y23.4399
G01 X17.3451 Y23.4800
G01 X17.3129 Y23.5213
G01 X17.2790 Y23.5603
G01 X17.2455 Y23.5955
G01 X17.2067 Y23.6323
G01 X17.1679 Y23.6656
G01 X17.1300 Y23.6951
G01 X17.0858 Y23.7262
G01 X17.0426 Y23.7534
G01 X16.9981 Y23.7785
G01 X16.9525 Y23.8013
G01 X16.9069 Y23.8214
G01 X16.8581 Y23.8401
G01 X16.8096 Y23.8560
G01 X16.7603 Y23.8695
G01 X16.7130 Y23.8801
G01 X16.6602 Y23.8892
G01 X16.6095 Y23.8954
G01 X16.5586 Y23.8990
G01 X16.5100 Y23.9001
G01 X16.4565 Y23.8987
G01 X16.4062 Y23.8949
G01 X16.3549 Y23.8885
G01 X16.3070 Y23.8801
G01 X16.2549 Y23.8684
G01 X16.2057 Y23.8546
G01 X16.1619 Y23.8401
G01 X16.1142 Y23.8219
G01 X16.0633 Y23.7993
G01 X16.0175 Y23.7761
G01 X15.9736 Y23.7511
G01 X15.9342 Y23.7262
G01 X15.8900 Y23.6951
G01 X15.8483 Y23.6625
G01 X15.8133 Y23.6323
G01 X15.7763 Y23.5972
G01 X15.7410 Y23.5603
G01 X15.7075 Y23.5217
G01 X15.6749 Y23.4800
G01 X15.6465 Y23.4399
G01 X15.6191 Y23.3968
G01 X15.5939 Y23.3525
G01 X15.5708 Y23.3069
G01 X15.5481 Y23.2558
G01 X15.5299 Y23.2081
G01 X15.5140 Y23.1596
G01 X15.5005 Y23.1103
G01 X15.4899 Y23.0630
G01 X15.4815 Y23.0151
G01 X15.4751 Y22.9644
G01 X15.4713 Y22.9135
G01 X15.4699 Y22.8602
G01 X13.6653 Y21.0557
G01 X12.1873 Y21.0557
G01 X12.1825 Y21.0945
G01 X12.1764 Y21.1290
G01 X12.1688 Y21.1629
G01 X12.1590 Y21.1990
G01 X12.1474 Y21.2345
G01 X12.1336 Y21.2705
G01 X12.1190 Y21.3036
G01 X12.1023 Y21.3370
G01 X12.0840 Y21.3695
G01 X12.0642 Y21.4012
G01 X12.0398 Y21.4357
G01 X12.0171 Y21.4646
G01 X11.9922 Y21.4933
G01 X11.9682 Y21.5186
G01 X11.9393 Y21.5460
G01 X11.9109 Y21.5703
G01 X11.8838 Y21.5914
G01 X11.8508 Y21.6146
G01 X11.8191 Y21.6344
G01 X11.7866 Y21.6527
G01 X11.7574 Y21.6674
G01 X11.7201 Y21.6840
G01 X11.6887 Y21.6961
G01 X11.6533 Y21.7080
G01 X11.6173 Y21.7180
G01 X11.5786 Y21.7268
G01 X11.5441 Y21.7329
G01 X11.5021 Y21.7380
G01 X11.4649 Y21.7407
G01 X11.4275 Y21.7415
G01 X11.3902 Y21.7404
G01 X11.3535 Y21.7376
G01 X11.3159 Y21.7329
G01 X11.2814 Y21.7268
G01 X11.2475 Y21.7192
G01 X11.2114 Y21.7094
G01 X11.1759 Y21.6978
G01 X11.1399 Y21.6840
G01 X11.1068 Y21.6694
G01 X11.0734 Y21.6527
G01 X11.0409 Y21.6344
G01 X11.0092 Y21.6146
G01 X10.9762 Y21.5914
G01 X10.9491 Y21.5703
G01 X10.9207 Y21.5460
G01 X10.8936 Y21.5203
G01 X10.8678 Y21.4933
G01 X10.8433 Y21.4651
G01 X10.8190 Y21.4342
G01 X10.7986 Y21.4053
G01 X10.7785 Y21.3738
G01 X10.7600 Y21.3413
G01 X10.7430 Y21.3078
G01 X10.7278 Y21.2739
G01 X10.7143 Y21.2391
G01 X10.7024 Y21.2037
G01 X10.6924 Y21.1677
G01 X10.6841 Y21.1313
G01 X10.6775 Y21.0945
G01 X10.6729 Y21.0574
G01 X10.6698 Y21.0153
G00 Z1.0000
G00 X18.0111 Y3.8586
G01 F50.00
G01 Z-0.0150
G01 F50.00
G01 X18.0099 Y3.8100
G01 X18.0110 Y3.7614
G01 X18.0151 Y3.7062
G01 X18.0208 Y3.6598
G01 X18.0299 Y3.6070
G01 X18.0405 Y3.5597
G01 X18.0540 Y3.5104
G01 X18.0699 Y3.4619
G01 X18.0886 Y3.4131
G01 X18.1107 Y3.3633
G01 X18.1339 Y3.3175
G01 X18.1589 Y3.2736
G01 X18.1865 Y3.2301
G01 X18.2149 Y3.1900
G01 X18.2471 Y3.1487
G01 X18.2777 Y3.1133
G01 X18.3145 Y3.0745
G01 X18.3497 Y3.0410
G01 X18.3883 Y3.0075
G01 X18.4300 Y2.9749
G01 X18.4701 Y2.9465
G01 X18.5132 Y2.9191
G01 X18.5575 Y2.8939
G01 X18.6033 Y2.8707
G01 X18.6531 Y2.8486
G01 X18.6973 Y2.8315
G01 X18.7457 Y2.8154
G01 X18.7949 Y2.8016
G01 X18.8470 Y2.7899
G01 X18.8949 Y2.7815
G01 X18.9456 Y2.7751
G01 X18.9965 Y2.7713
G01 X19.0500 Y2.7698
G01 X19.0986 Y2.7710
G01 X19.1538 Y2.7751
G01 X19.2002 Y2.7808
G01 X19.2530 Y2.7899
G01 X19.3003 Y2.8005
G01 X19.3496 Y2.8140
G01 X19.3981 Y2.8299
G01 X19.4469 Y2.8486
G01 X19.4967 Y2.8707
G01 X19.5425 Y2.8939
G01 X19.5864 Y2.9189
G01 X19.6299 Y2.9465
G01 X19.6700 Y2.9749
G01 X19.7113 Y3.0071
G01 X19.7467 Y3.0377
G01 X19.7855 Y3.0745
G01 X19.8190 Y3.1097
G01 X19.8525 Y3.1483
G01 X19.8851 Y3.1900
G01 X19.9135 Y3.2301
G01 X19.9409 Y3.2732
G01 X19.9661 Y3.3175
G01 X19.9893 Y3.3633
G01 X20.0114 Y3.4131
G01 X20.0285 Y3.4573
G01 X20.0446 Y3.5057
G01 X20.0584 Y3.5549
G01 X20.0701 Y3.6070
G01 X20.0785 Y3.6549
G01 X20.0849 Y3.7056
G01 X20.0887 Y3.7565
G01 X20.0901 Y3.8100
G01 X20.0890 Y3.8586
G01 X20.0849 Y3.9138
G01 X20.0785 Y3.9651
G01 X20.0701 Y4.0130
G01 X20.0584 Y4.0651
G01 X20.0446 Y4.1143
G01 X20.0285 Y4.1627
G01 X20.0114 Y4.2069
G01 X19.9892 Y4.2569
G01 X19.9685 Y4.2981
G01 X19.9434 Y4.3426
G01 X19.9162 Y4.3858
G01 X19.8851 Y4.4300
G01 X19.8529 Y4.4713
G01 X19.8190 Y4.5103
G01 X19.7857 Y4.5453
G01 X19.7857 Y22.1247
G01 X19.8223 Y22.1633
G01 X19.8556 Y22.2021
G01 X19.8851 Y22.2400
G01 X19.9162 Y22.2842
G01 X19.9434 Y22.3274
G01 X19.9685 Y22.3719
G01 X19.9913 Y22.4175
G01 X20.0119 Y22.4642
G01 X20.0301 Y22.5119
G01 X20.0446 Y22.5557
G01 X20.0584 Y22.6049
G01 X20.0701 Y22.6570
G01 X20.0785 Y22.7049
G01 X20.0849 Y22.7556
G01 X20.0887 Y22.8065
G01 X20.0901 Y22.8600
G01 X20.0890 Y22.9086
G01 X20.0849 Y22.9638
G01 X20.0792 Y23.0102
G01 X20.0701 Y23.0630
G01 X20.0595 Y23.1103
G01 X20.0460 Y23.1596
G01 X20.0301 Y23.2081
G01 X20.0100 Y23.2603
G01 X19.9893 Y23.3067
G01 X19.9661 Y23.3525
G01 X19.9411 Y23.3964
G01 X19.9135 Y23.4399
G01 X19.8851 Y23.4800
G01 X19.8529 Y23.5213
G01 X19.8190 Y23.5603
G01 X19.7855 Y23.5955
G01 X19.7503 Y23.6290
G01 X19.7117 Y23.6625
G01 X19.6700 Y23.6951
G01 X19.6299 Y23.7235
G01 X19.5826 Y23.7534
G01 X19.5381 Y23.7785
G01 X19.4925 Y23.8013
G01 X19.4469 Y23.8214
G01 X19.3981 Y23.8401
G01 X19.3496 Y23.8560
G01 X19.3003 Y23.8695
G01 X19.2530 Y23.8801
G01 X19.2051 Y23.8885
G01 X19.1544 Y23.8949
G01 X19.1035 Y23.8987
G01 X19.0500 Y23.9001
G01 X19.0014 Y23.8990
G01 X18.9462 Y23.8949
G01 X18.8998 Y23.8892
G01 X18.8470 Y23.8801
G01 X18.7997 Y23.8695
G01 X18.7504 Y23.8560
G01 X18.7019 Y23.8401
G01 X18.6531 Y23.8214
G01 X18.6033 Y23.7993
G01 X18.5575 Y23.7761
G01 X18.5136 Y23.7511
G01 X18.4701 Y23.7235
G01 X18.4300 Y23.6951
G01 X18.3887 Y23.6629
G01 X18.3533 Y23.6323
G01 X18.3145 Y23.5955
G01 X18.2810 Y23.5603
G01 X18.2475 Y23.5217
G01 X18.2149 Y23.4800
G01 X18.1865 Y23.4399
G01 X18.1591 Y23.3968
G01 X18.1339 Y23.3525
G01 X18.1107 Y23.3067
G01 X18.0886 Y23.2569
G01 X18.0715 Y23.2127
G01 X18.0554 Y23.1643
G01 X18.0416 Y23.1151
G01 X18.0299 Y23.0630
G01 X18.0215 Y23.0151
G01 X18.0151 Y22.9644
G01 X18.0113 Y22.9135
G01 X18.0099 Y22.8600
G01 X18.0110 Y22.8114
G01 X18.0151 Y22.7562
G01 X18.0215 Y22.7049
G01 X18.0299 Y22.6570
G01 X18.0416 Y22.6049
G01 X18.0554 Y22.5557
G01 X18.0715 Y22.5073
G01 X18.0886 Y22.4631
G01 X18.1108 Y22.4131
G01 X18.1315 Y22.3719
G01 X18.1566 Y22.3274
G01 X18.1838 Y22.2842
G01 X18.2149 Y22.2400
G01 X18.2471 Y22.1987
G01 X18.2810 Y22.1597
G01 X18.3143 Y22.1247
G01 X18.3143 Y4.5453
G01 X18.2810 Y4.5103
G01 X18.2475 Y4.4717
G01 X18.2149 Y4.4300
G01 X18.1865 Y4.3899
G01 X18.1591 Y4.3468
G01 X18.1339 Y4.3025
G01 X18.1107 Y4.2567
G01 X18.0900 Y4.2103
G01 X18.0715 Y4.1627
G01 X18.0554 Y4.1143
G01 X18.0416 Y4.0651
G01 X18.0303 Y4.0153
G01 X18.0215 Y3.9651
G01 X18.0151 Y3.9144
G01 X18.0111 Y3.8586
G00 Z1.0000
G00 X20.5511 Y3.8586
G01 F50.00
G01 Z-0.0150
G01 F50.00
G01 X20.5499 Y3.8100
G01 X20.5510 Y3.7614
G01 X20.5551 Y3.7062
G01 X20.5608 Y3.6598
G01 X20.5699 Y3.6070
G01 X20.5805 Y3.5597
G01 X20.5940 Y3.5104
G01 X20.6099 Y3.4619
G01 X20.6286 Y3.4131
G01 X20.6507 Y3.3633
G01 X20.6739 Y3.3175
G01 X20.6989 Y3.2736
G01 X20.7265 Y3.2301
G01 X20.7549 Y3.1900
G01 X20.7871 Y3.1487
G01 X20.8177 Y3.1133
G01 X20.8545 Y3.0745
G01 X20.8897 Y3.0410
G01 X20.9283 Y3.0075
G01 X20.9700 Y2.9749
G01 X21.0101 Y2.9465
G01 X21.0532 Y2.9191
G01 X21.0975 Y2.8939
G01 X21.1433 Y2.8707
G01 X21.1931 Y2.8486
G01 X21.2373 Y2.8315
G01 X21.2857 Y2.8154
G01 X21.3349 Y2.8016
G01 X21.3870 Y2.7899
G01 X21.4349 Y2.7815
G01 X21.4856 Y2.7751
G01 X21.5365 Y2.7713
G01 X21.5900 Y2.7698
G01 X21.6386 Y2.7710
G01 X21.6938 Y2.7751
G01 X21.7402 Y2.7808
G01 X21.7930 Y2.7899
G01 X21.8403 Y2.8005
G01 X21.8896 Y2.8140
G01 X21.9381 Y2.8299
G01 X21.9869 Y2.8486
G01 X22.0367 Y2.8707
G01 X22.0825 Y2.8939
G01 X22.1264 Y2.9189
G01 X22.1699 Y2.9465
G01 X22.2100 Y2.9749
G01 X22.2513 Y3.0071
G01 X22.2867 Y3.0377
G01 X22.3255 Y3.0745
G01 X22.3590 Y3.1097
G01 X22.3925 Y3.1483
G01 X22.4251 Y3.1900
G01 X22.4535 Y3.2301
G01 X22.4809 Y3.2732
G01 X22.5061 Y3.3175
G01 X22.5293 Y3.3633
G01 X22.5514 Y3.4131
G01 X22.5685 Y3.4573
G01 X22.5846 Y3.5057
G01 X22.5984 Y3.5549
G01 X22.6101 Y3.6070
G01 X22.6185 Y3.6549
G01 X22.6249 Y3.7056
G01 X22.6287 Y3.7565
G01 X22.6301 Y3.8100
G01 X22.6290 Y3.8586
G01 X22.6249 Y3.9138
G01 X22.6185 Y3.9651
G01 X22.6101 Y4.0130
G01 X22.5984 Y4.0651
G01 X22.5846 Y4.1143
G01 X22.5685 Y4.1627
G01 X22.5514 Y4.2069
G01 X22.5292 Y4.2569
G01 X22.5085 Y4.2981
G01 X22.4834 Y4.3426
G01 X22.4562 Y4.3858
G01 X22.4251 Y4.4300
G01 X22.3929 Y4.4713
G01 X22.3590 Y4.5103
G01 X22.3257 Y4.5453
G01 X22.3257 Y22.1247
G01 X22.3623 Y22.1633
G01 X22.3956 Y22.2021
G01 X22.4251 Y22.2400
G01 X22.4562 Y22.2842
G01 X22.4834 Y22.3274
G01 X22.5085 Y22.3719
G01 X22.5313 Y22.4175
G01 X22.5519 Y22.4642
G01 X22.5701 Y22.5119
G01 X22.5846 Y22.5557
G01 X22.5984 Y22.6049
G01 X22.6101 Y22.6570
G01 X22.6185 Y22.7049
G01 X22.6249 Y22.7556
G01 X22.6287 Y22.8065
G01 X22.6301 Y22.8600
G01 X22.6290 Y22.9086
G01 X22.6249 Y22.9638
G01 X22.6192 Y23.0102
G01 X22.6101 Y23.0630
G01 X22.5995 Y23.1103
G01 X22.5860 Y23.1596
G01 X22.5701 Y23.2081
G01 X22.5500 Y23.2603
G01 X22.5293 Y23.3067
G01 X22.5061 Y23.3525
G01 X22.4811 Y23.3964
G01 X22.4535 Y23.4399
G01 X22.4251 Y23.4800
G01 X22.3929 Y23.5213
G01 X22.3590 Y23.5603
G01 X22.3255 Y23.5955
G01 X22.2903 Y23.6290
G01 X22.2517 Y23.6625
G01 X22.2100 Y23.6951
G01 X22.1699 Y23.7235
G01 X22.1226 Y23.7534
G01 X22.0781 Y23.7785
G01 X22.0325 Y23.8013
G01 X21.9869 Y23.8214
G01 X21.9381 Y23.8401
G01 X21.8896 Y23.8560
G01 X21.8403 Y23.8695
G01 X21.7930 Y23.8801
G01 X21.7451 Y23.8885
G01 X21.6944 Y23.8949
G01 X21.6435 Y23.8987
G01 X21.5900 Y23.9001
G01 X21.5414 Y23.8990
G01 X21.4862 Y23.8949
G01 X21.4398 Y23.8892
G01 X21.3870 Y23.8801
G01 X21.3397 Y23.8695
G01 X21.2904 Y23.8560
G01 X21.2419 Y23.8401
G01 X21.1931 Y23.8214
G01 X21.1433 Y23.7993
G01 X21.0975 Y23.7761
G01 X21.0536 Y23.7511
G01 X21.0101 Y23.7235
G01 X20.9700 Y23.6951
G01 X20.9287 Y23.6629
G01 X20.8933 Y23.6323
G01 X20.8545 Y23.5955
G01 X20.8210 Y23.5603
G01 X20.7875 Y23.5217
G01 X20.7549 Y23.4800
G01 X20.7265 Y23.4399
G01 X20.6991 Y23.3968
G01 X20.6739 Y23.3525
G01 X20.6507 Y23.3067
G01 X20.6286 Y23.2569
G01 X20.6115 Y23.2127
G01 X20.5954 Y23.1643
G01 X20.5816 Y23.1151
G01 X20.5699 Y23.0630
G01 X20.5615 Y23.0151
G01 X20.5551 Y22.9644
G01 X20.5513 Y22.9135
G01 X20.5499 Y22.8600
G01 X20.5510 Y22.8114
G01 X20.5551 Y22.7562
G01 X20.5615 Y22.7049
G01 X20.5699 Y22.6570
G01 X20.5816 Y22.6049
G01 X20.5954 Y22.5557
G01 X20.6115 Y22.5073
G01 X20.6286 Y22.4631
G01 X20.6508 Y22.4131
G01 X20.6715 Y22.3719
G01 X20.6966 Y22.3274
G01 X20.7238 Y22.2842
G01 X20.7549 Y22.2400
G01 X20.7871 Y22.1987
G01 X20.8210 Y22.1597
G01 X20.8543 Y22.1247
G01 X20.8543 Y4.5453
G01 X20.8210 Y4.5103
G01 X20.7875 Y4.4717
G01 X20.7549 Y4.4300
G01 X20.7265 Y4.3899
G01 X20.6991 Y4.3468
G01 X20.6739 Y4.3025
G01 X20.6507 Y4.2567
G01 X20.6300 Y4.2103
G01 X20.6115 Y4.1627
G01 X20.5954 Y4.1143
G01 X20.5816 Y4.0651
G01 X20.5703 Y4.0153
G01 X20.5615 Y3.9651
G01 X20.5551 Y3.9144
G01 X20.5511 Y3.8586
G00 Z1.0000
M05
G00 Z1.0000
G00 Z12.70
G00 X0.0 Y0.0

M02