(G-CODE GENERATED BY FLATCAM v8.96 - www.flatcam.org - Version Date: 2019/08/23)

(Name: copper_top.gbr_cutout_cnc)
(Type: G-code from Geometry)
(Units: MM)

(Created on Monday, 25 November 2019 at 15:55)

(TOOL DIAMETER: 0.11 mm)
(Feedrate: 30.0 mm/min)
(Feedrate_Z: 30.0 mm/min)
(Feedrate rapids 79.9998 mm/min)

(Z_Cut: -2.5 mm)
(DepthPerCut: 0.25 mm <=>10 passes)
(Z_Move: 5.0 mm)
(Z Toolchange: 12.7 mm)
(X,Y Toolchange: 0.0000, 0.0000 mm)
(Z Start: None mm)
(Z End: 12.7 mm)
(Steps per circle: 128)
(Postprocessor Geometry: default)

(X range:    2.5006 ...   23.5848  mm)
(Y range:    1.8152 ...   24.8548  mm)

(Spindle Speed: None RPM)

G21
G90
G94

G01 F30.00
G00 Z5.0000

M03
G00 X22.5298 Y1.8152
G01 F30.00
G01 Z-0.2500
G01 F30.00
G01 X3.5556 Y1.8152
G01 X3.4522 Y1.8203
G01 X3.3498 Y1.8355
G01 X3.2494 Y1.8606
G01 X3.1519 Y1.8955
G01 X3.0583 Y1.9398
G01 X2.9695 Y1.9930
G01 X2.8863 Y2.0547
G01 X2.8096 Y2.1242
G01 X2.7401 Y2.2009
G01 X2.6784 Y2.2841
G01 X2.6252 Y2.3729
G01 X2.5809 Y2.4665
G01 X2.5460 Y2.5639
G01 X2.5209 Y2.6644
G01 X2.5057 Y2.7668
G01 X2.5006 Y2.8702
G01 X2.5006 Y23.7998
G01 X2.5057 Y23.9032
G01 X2.5209 Y24.0056
G01 X2.5460 Y24.1061
G01 X2.5809 Y24.2035
G01 X2.6252 Y24.2971
G01 X2.6784 Y24.3859
G01 X2.7401 Y24.4691
G01 X2.8096 Y24.5458
G01 X2.8863 Y24.6153
G01 X2.9695 Y24.6770
G01 X3.0583 Y24.7302
G01 X3.1519 Y24.7745
G01 X3.2494 Y24.8094
G01 X3.3498 Y24.8345
G01 X3.4522 Y24.8497
G01 X3.5556 Y24.8548
G01 X22.5298 Y24.8548
G01 X22.6332 Y24.8497
G01 X22.7356 Y24.8345
G01 X22.8361 Y24.8094
G01 X22.9335 Y24.7745
G01 X23.0271 Y24.7302
G01 X23.1159 Y24.6770
G01 X23.1991 Y24.6153
G01 X23.2758 Y24.5458
G01 X23.3453 Y24.4691
G01 X23.4070 Y24.3859
G01 X23.4602 Y24.2971
G01 X23.5045 Y24.2035
G01 X23.5394 Y24.1061
G01 X23.5645 Y24.0056
G01 X23.5797 Y23.9032
G01 X23.5848 Y23.7998
G01 X23.5848 Y2.8702
G01 X23.5797 Y2.7668
G01 X23.5645 Y2.6644
G01 X23.5394 Y2.5639
G01 X23.5045 Y2.4665
G01 X23.4602 Y2.3729
G01 X23.4070 Y2.2841
G01 X23.3453 Y2.2009
G01 X23.2758 Y2.1242
G01 X23.1991 Y2.0547
G01 X23.1159 Y1.9930
G01 X23.0271 Y1.9398
G01 X22.9335 Y1.8955
G01 X22.8361 Y1.8606
G01 X22.7356 Y1.8355
G01 X22.6332 Y1.8203
G01 X22.5298 Y1.8152
G00 X22.5298 Y1.8152
G01 F30.00
G01 Z-0.5000
G01 F30.00
G01 X3.5556 Y1.8152
G01 X3.4522 Y1.8203
G01 X3.3498 Y1.8355
G01 X3.2494 Y1.8606
G01 X3.1519 Y1.8955
G01 X3.0583 Y1.9398
G01 X2.9695 Y1.9930
G01 X2.8863 Y2.0547
G01 X2.8096 Y2.1242
G01 X2.7401 Y2.2009
G01 X2.6784 Y2.2841
G01 X2.6252 Y2.3729
G01 X2.5809 Y2.4665
G01 X2.5460 Y2.5639
G01 X2.5209 Y2.6644
G01 X2.5057 Y2.7668
G01 X2.5006 Y2.8702
G01 X2.5006 Y23.7998
G01 X2.5057 Y23.9032
G01 X2.5209 Y24.0056
G01 X2.5460 Y24.1061
G01 X2.5809 Y24.2035
G01 X2.6252 Y24.2971
G01 X2.6784 Y24.3859
G01 X2.7401 Y24.4691
G01 X2.8096 Y24.5458
G01 X2.8863 Y24.6153
G01 X2.9695 Y24.6770
G01 X3.0583 Y24.7302
G01 X3.1519 Y24.7745
G01 X3.2494 Y24.8094
G01 X3.3498 Y24.8345
G01 X3.4522 Y24.8497
G01 X3.5556 Y24.8548
G01 X22.5298 Y24.8548
G01 X22.6332 Y24.8497
G01 X22.7356 Y24.8345
G01 X22.8361 Y24.8094
G01 X22.9335 Y24.7745
G01 X23.0271 Y24.7302
G01 X23.1159 Y24.6770
G01 X23.1991 Y24.6153
G01 X23.2758 Y24.5458
G01 X23.3453 Y24.4691
G01 X23.4070 Y24.3859
G01 X23.4602 Y24.2971
G01 X23.5045 Y24.2035
G01 X23.5394 Y24.1061
G01 X23.5645 Y24.0056
G01 X23.5797 Y23.9032
G01 X23.5848 Y23.7998
G01 X23.5848 Y2.8702
G01 X23.5797 Y2.7668
G01 X23.5645 Y2.6644
G01 X23.5394 Y2.5639
G01 X23.5045 Y2.4665
G01 X23.4602 Y2.3729
G01 X23.4070 Y2.2841
G01 X23.3453 Y2.2009
G01 X23.2758 Y2.1242
G01 X23.1991 Y2.0547
G01 X23.1159 Y1.9930
G01 X23.0271 Y1.9398
G01 X22.9335 Y1.8955
G01 X22.8361 Y1.8606
G01 X22.7356 Y1.8355
G01 X22.6332 Y1.8203
G01 X22.5298 Y1.8152
G00 X22.5298 Y1.8152
G01 F30.00
G01 Z-0.7500
G01 F30.00
G01 X3.5556 Y1.8152
G01 X3.4522 Y1.8203
G01 X3.3498 Y1.8355
G01 X3.2494 Y1.8606
G01 X3.1519 Y1.8955
G01 X3.0583 Y1.9398
G01 X2.9695 Y1.9930
G01 X2.8863 Y2.0547
G01 X2.8096 Y2.1242
G01 X2.7401 Y2.2009
G01 X2.6784 Y2.2841
G01 X2.6252 Y2.3729
G01 X2.5809 Y2.4665
G01 X2.5460 Y2.5639
G01 X2.5209 Y2.6644
G01 X2.5057 Y2.7668
G01 X2.5006 Y2.8702
G01 X2.5006 Y23.7998
G01 X2.5057 Y23.9032
G01 X2.5209 Y24.0056
G01 X2.5460 Y24.1061
G01 X2.5809 Y24.2035
G01 X2.6252 Y24.2971
G01 X2.6784 Y24.3859
G01 X2.7401 Y24.4691
G01 X2.8096 Y24.5458
G01 X2.8863 Y24.6153
G01 X2.9695 Y24.6770
G01 X3.0583 Y24.7302
G01 X3.1519 Y24.7745
G01 X3.2494 Y24.8094
G01 X3.3498 Y24.8345
G01 X3.4522 Y24.8497
G01 X3.5556 Y24.8548
G01 X22.5298 Y24.8548
G01 X22.6332 Y24.8497
G01 X22.7356 Y24.8345
G01 X22.8361 Y24.8094
G01 X22.9335 Y24.7745
G01 X23.0271 Y24.7302
G01 X23.1159 Y24.6770
G01 X23.1991 Y24.6153
G01 X23.2758 Y24.5458
G01 X23.3453 Y24.4691
G01 X23.4070 Y24.3859
G01 X23.4602 Y24.2971
G01 X23.5045 Y24.2035
G01 X23.5394 Y24.1061
G01 X23.5645 Y24.0056
G01 X23.5797 Y23.9032
G01 X23.5848 Y23.7998
G01 X23.5848 Y2.8702
G01 X23.5797 Y2.7668
G01 X23.5645 Y2.6644
G01 X23.5394 Y2.5639
G01 X23.5045 Y2.4665
G01 X23.4602 Y2.3729
G01 X23.4070 Y2.2841
G01 X23.3453 Y2.2009
G01 X23.2758 Y2.1242
G01 X23.1991 Y2.0547
G01 X23.1159 Y1.9930
G01 X23.0271 Y1.9398
G01 X22.9335 Y1.8955
G01 X22.8361 Y1.8606
G01 X22.7356 Y1.8355
G01 X22.6332 Y1.8203
G01 X22.5298 Y1.8152
G00 X22.5298 Y1.8152
G01 F30.00
G01 Z-1.0000
G01 F30.00
G01 X3.5556 Y1.8152
G01 X3.4522 Y1.8203
G01 X3.3498 Y1.8355
G01 X3.2494 Y1.8606
G01 X3.1519 Y1.8955
G01 X3.0583 Y1.9398
G01 X2.9695 Y1.9930
G01 X2.8863 Y2.0547
G01 X2.8096 Y2.1242
G01 X2.7401 Y2.2009
G01 X2.6784 Y2.2841
G01 X2.6252 Y2.3729
G01 X2.5809 Y2.4665
G01 X2.5460 Y2.5639
G01 X2.5209 Y2.6644
G01 X2.5057 Y2.7668
G01 X2.5006 Y2.8702
G01 X2.5006 Y23.7998
G01 X2.5057 Y23.9032
G01 X2.5209 Y24.0056
G01 X2.5460 Y24.1061
G01 X2.5809 Y24.2035
G01 X2.6252 Y24.2971
G01 X2.6784 Y24.3859
G01 X2.7401 Y24.4691
G01 X2.8096 Y24.5458
G01 X2.8863 Y24.6153
G01 X2.9695 Y24.6770
G01 X3.0583 Y24.7302
G01 X3.1519 Y24.7745
G01 X3.2494 Y24.8094
G01 X3.3498 Y24.8345
G01 X3.4522 Y24.8497
G01 X3.5556 Y24.8548
G01 X22.5298 Y24.8548
G01 X22.6332 Y24.8497
G01 X22.7356 Y24.8345
G01 X22.8361 Y24.8094
G01 X22.9335 Y24.7745
G01 X23.0271 Y24.7302
G01 X23.1159 Y24.6770
G01 X23.1991 Y24.6153
G01 X23.2758 Y24.5458
G01 X23.3453 Y24.4691
G01 X23.4070 Y24.3859
G01 X23.4602 Y24.2971
G01 X23.5045 Y24.2035
G01 X23.5394 Y24.1061
G01 X23.5645 Y24.0056
G01 X23.5797 Y23.9032
G01 X23.5848 Y23.7998
G01 X23.5848 Y2.8702
G01 X23.5797 Y2.7668
G01 X23.5645 Y2.6644
G01 X23.5394 Y2.5639
G01 X23.5045 Y2.4665
G01 X23.4602 Y2.3729
G01 X23.4070 Y2.2841
G01 X23.3453 Y2.2009
G01 X23.2758 Y2.1242
G01 X23.1991 Y2.0547
G01 X23.1159 Y1.9930
G01 X23.0271 Y1.9398
G01 X22.9335 Y1.8955
G01 X22.8361 Y1.8606
G01 X22.7356 Y1.8355
G01 X22.6332 Y1.8203
G01 X22.5298 Y1.8152
G00 X22.5298 Y1.8152
G01 F30.00
G01 Z-1.2500
G01 F30.00
G01 X3.5556 Y1.8152
G01 X3.4522 Y1.8203
G01 X3.3498 Y1.8355
G01 X3.2494 Y1.8606
G01 X3.1519 Y1.8955
G01 X3.0583 Y1.9398
G01 X2.9695 Y1.9930
G01 X2.8863 Y2.0547
G01 X2.8096 Y2.1242
G01 X2.7401 Y2.2009
G01 X2.6784 Y2.2841
G01 X2.6252 Y2.3729
G01 X2.5809 Y2.4665
G01 X2.5460 Y2.5639
G01 X2.5209 Y2.6644
G01 X2.5057 Y2.7668
G01 X2.5006 Y2.8702
G01 X2.5006 Y23.7998
G01 X2.5057 Y23.9032
G01 X2.5209 Y24.0056
G01 X2.5460 Y24.1061
G01 X2.5809 Y24.2035
G01 X2.6252 Y24.2971
G01 X2.6784 Y24.3859
G01 X2.7401 Y24.4691
G01 X2.8096 Y24.5458
G01 X2.8863 Y24.6153
G01 X2.9695 Y24.6770
G01 X3.0583 Y24.7302
G01 X3.1519 Y24.7745
G01 X3.2494 Y24.8094
G01 X3.3498 Y24.8345
G01 X3.4522 Y24.8497
G01 X3.5556 Y24.8548
G01 X22.5298 Y24.8548
G01 X22.6332 Y24.8497
G01 X22.7356 Y24.8345
G01 X22.8361 Y24.8094
G01 X22.9335 Y24.7745
G01 X23.0271 Y24.7302
G01 X23.1159 Y24.6770
G01 X23.1991 Y24.6153
G01 X23.2758 Y24.5458
G01 X23.3453 Y24.4691
G01 X23.4070 Y24.3859
G01 X23.4602 Y24.2971
G01 X23.5045 Y24.2035
G01 X23.5394 Y24.1061
G01 X23.5645 Y24.0056
G01 X23.5797 Y23.9032
G01 X23.5848 Y23.7998
G01 X23.5848 Y2.8702
G01 X23.5797 Y2.7668
G01 X23.5645 Y2.6644
G01 X23.5394 Y2.5639
G01 X23.5045 Y2.4665
G01 X23.4602 Y2.3729
G01 X23.4070 Y2.2841
G01 X23.3453 Y2.2009
G01 X23.2758 Y2.1242
G01 X23.1991 Y2.0547
G01 X23.1159 Y1.9930
G01 X23.0271 Y1.9398
G01 X22.9335 Y1.8955
G01 X22.8361 Y1.8606
G01 X22.7356 Y1.8355
G01 X22.6332 Y1.8203
G01 X22.5298 Y1.8152
G00 X22.5298 Y1.8152
G01 F30.00
G01 Z-1.5000
G01 F30.00
G01 X3.5556 Y1.8152
G01 X3.4522 Y1.8203
G01 X3.3498 Y1.8355
G01 X3.2494 Y1.8606
G01 X3.1519 Y1.8955
G01 X3.0583 Y1.9398
G01 X2.9695 Y1.9930
G01 X2.8863 Y2.0547
G01 X2.8096 Y2.1242
G01 X2.7401 Y2.2009
G01 X2.6784 Y2.2841
G01 X2.6252 Y2.3729
G01 X2.5809 Y2.4665
G01 X2.5460 Y2.5639
G01 X2.5209 Y2.6644
G01 X2.5057 Y2.7668
G01 X2.5006 Y2.8702
G01 X2.5006 Y23.7998
G01 X2.5057 Y23.9032
G01 X2.5209 Y24.0056
G01 X2.5460 Y24.1061
G01 X2.5809 Y24.2035
G01 X2.6252 Y24.2971
G01 X2.6784 Y24.3859
G01 X2.7401 Y24.4691
G01 X2.8096 Y24.5458
G01 X2.8863 Y24.6153
G01 X2.9695 Y24.6770
G01 X3.0583 Y24.7302
G01 X3.1519 Y24.7745
G01 X3.2494 Y24.8094
G01 X3.3498 Y24.8345
G01 X3.4522 Y24.8497
G01 X3.5556 Y24.8548
G01 X22.5298 Y24.8548
G01 X22.6332 Y24.8497
G01 X22.7356 Y24.8345
G01 X22.8361 Y24.8094
G01 X22.9335 Y24.7745
G01 X23.0271 Y24.7302
G01 X23.1159 Y24.6770
G01 X23.1991 Y24.6153
G01 X23.2758 Y24.5458
G01 X23.3453 Y24.4691
G01 X23.4070 Y24.3859
G01 X23.4602 Y24.2971
G01 X23.5045 Y24.2035
G01 X23.5394 Y24.1061
G01 X23.5645 Y24.0056
G01 X23.5797 Y23.9032
G01 X23.5848 Y23.7998
G01 X23.5848 Y2.8702
G01 X23.5797 Y2.7668
G01 X23.5645 Y2.6644
G01 X23.5394 Y2.5639
G01 X23.5045 Y2.4665
G01 X23.4602 Y2.3729
G01 X23.4070 Y2.2841
G01 X23.3453 Y2.2009
G01 X23.2758 Y2.1242
G01 X23.1991 Y2.0547
G01 X23.1159 Y1.9930
G01 X23.0271 Y1.9398
G01 X22.9335 Y1.8955
G01 X22.8361 Y1.8606
G01 X22.7356 Y1.8355
G01 X22.6332 Y1.8203
G01 X22.5298 Y1.8152
G00 X22.5298 Y1.8152
G01 F30.00
G01 Z-1.7500
G01 F30.00
G01 X3.5556 Y1.8152
G01 X3.4522 Y1.8203
G01 X3.3498 Y1.8355
G01 X3.2494 Y1.8606
G01 X3.1519 Y1.8955
G01 X3.0583 Y1.9398
G01 X2.9695 Y1.9930
G01 X2.8863 Y2.0547
G01 X2.8096 Y2.1242
G01 X2.7401 Y2.2009
G01 X2.6784 Y2.2841
G01 X2.6252 Y2.3729
G01 X2.5809 Y2.4665
G01 X2.5460 Y2.5639
G01 X2.5209 Y2.6644
G01 X2.5057 Y2.7668
G01 X2.5006 Y2.8702
G01 X2.5006 Y23.7998
G01 X2.5057 Y23.9032
G01 X2.5209 Y24.0056
G01 X2.5460 Y24.1061
G01 X2.5809 Y24.2035
G01 X2.6252 Y24.2971
G01 X2.6784 Y24.3859
G01 X2.7401 Y24.4691
G01 X2.8096 Y24.5458
G01 X2.8863 Y24.6153
G01 X2.9695 Y24.6770
G01 X3.0583 Y24.7302
G01 X3.1519 Y24.7745
G01 X3.2494 Y24.8094
G01 X3.3498 Y24.8345
G01 X3.4522 Y24.8497
G01 X3.5556 Y24.8548
G01 X22.5298 Y24.8548
G01 X22.6332 Y24.8497
G01 X22.7356 Y24.8345
G01 X22.8361 Y24.8094
G01 X22.9335 Y24.7745
G01 X23.0271 Y24.7302
G01 X23.1159 Y24.6770
G01 X23.1991 Y24.6153
G01 X23.2758 Y24.5458
G01 X23.3453 Y24.4691
G01 X23.4070 Y24.3859
G01 X23.4602 Y24.2971
G01 X23.5045 Y24.2035
G01 X23.5394 Y24.1061
G01 X23.5645 Y24.0056
G01 X23.5797 Y23.9032
G01 X23.5848 Y23.7998
G01 X23.5848 Y2.8702
G01 X23.5797 Y2.7668
G01 X23.5645 Y2.6644
G01 X23.5394 Y2.5639
G01 X23.5045 Y2.4665
G01 X23.4602 Y2.3729
G01 X23.4070 Y2.2841
G01 X23.3453 Y2.2009
G01 X23.2758 Y2.1242
G01 X23.1991 Y2.0547
G01 X23.1159 Y1.9930
G01 X23.0271 Y1.9398
G01 X22.9335 Y1.8955
G01 X22.8361 Y1.8606
G01 X22.7356 Y1.8355
G01 X22.6332 Y1.8203
G01 X22.5298 Y1.8152
G00 X22.5298 Y1.8152
G01 F30.00
G01 Z-2.0000
G01 F30.00
G01 X3.5556 Y1.8152
G01 X3.4522 Y1.8203
G01 X3.3498 Y1.8355
G01 X3.2494 Y1.8606
G01 X3.1519 Y1.8955
G01 X3.0583 Y1.9398
G01 X2.9695 Y1.9930
G01 X2.8863 Y2.0547
G01 X2.8096 Y2.1242
G01 X2.7401 Y2.2009
G01 X2.6784 Y2.2841
G01 X2.6252 Y2.3729
G01 X2.5809 Y2.4665
G01 X2.5460 Y2.5639
G01 X2.5209 Y2.6644
G01 X2.5057 Y2.7668
G01 X2.5006 Y2.8702
G01 X2.5006 Y23.7998
G01 X2.5057 Y23.9032
G01 X2.5209 Y24.0056
G01 X2.5460 Y24.1061
G01 X2.5809 Y24.2035
G01 X2.6252 Y24.2971
G01 X2.6784 Y24.3859
G01 X2.7401 Y24.4691
G01 X2.8096 Y24.5458
G01 X2.8863 Y24.6153
G01 X2.9695 Y24.6770
G01 X3.0583 Y24.7302
G01 X3.1519 Y24.7745
G01 X3.2494 Y24.8094
G01 X3.3498 Y24.8345
G01 X3.4522 Y24.8497
G01 X3.5556 Y24.8548
G01 X22.5298 Y24.8548
G01 X22.6332 Y24.8497
G01 X22.7356 Y24.8345
G01 X22.8361 Y24.8094
G01 X22.9335 Y24.7745
G01 X23.0271 Y24.7302
G01 X23.1159 Y24.6770
G01 X23.1991 Y24.6153
G01 X23.2758 Y24.5458
G01 X23.3453 Y24.4691
G01 X23.4070 Y24.3859
G01 X23.4602 Y24.2971
G01 X23.5045 Y24.2035
G01 X23.5394 Y24.1061
G01 X23.5645 Y24.0056
G01 X23.5797 Y23.9032
G01 X23.5848 Y23.7998
G01 X23.5848 Y2.8702
G01 X23.5797 Y2.7668
G01 X23.5645 Y2.6644
G01 X23.5394 Y2.5639
G01 X23.5045 Y2.4665
G01 X23.4602 Y2.3729
G01 X23.4070 Y2.2841
G01 X23.3453 Y2.2009
G01 X23.2758 Y2.1242
G01 X23.1991 Y2.0547
G01 X23.1159 Y1.9930
G01 X23.0271 Y1.9398
G01 X22.9335 Y1.8955
G01 X22.8361 Y1.8606
G01 X22.7356 Y1.8355
G01 X22.6332 Y1.8203
G01 X22.5298 Y1.8152
G00 X22.5298 Y1.8152
G01 F30.00
G01 Z-2.2500
G01 F30.00
G01 X3.5556 Y1.8152
G01 X3.4522 Y1.8203
G01 X3.3498 Y1.8355
G01 X3.2494 Y1.8606
G01 X3.1519 Y1.8955
G01 X3.0583 Y1.9398
G01 X2.9695 Y1.9930
G01 X2.8863 Y2.0547
G01 X2.8096 Y2.1242
G01 X2.7401 Y2.2009
G01 X2.6784 Y2.2841
G01 X2.6252 Y2.3729
G01 X2.5809 Y2.4665
G01 X2.5460 Y2.5639
G01 X2.5209 Y2.6644
G01 X2.5057 Y2.7668
G01 X2.5006 Y2.8702
G01 X2.5006 Y23.7998
G01 X2.5057 Y23.9032
G01 X2.5209 Y24.0056
G01 X2.5460 Y24.1061
G01 X2.5809 Y24.2035
G01 X2.6252 Y24.2971
G01 X2.6784 Y24.3859
G01 X2.7401 Y24.4691
G01 X2.8096 Y24.5458
G01 X2.8863 Y24.6153
G01 X2.9695 Y24.6770
G01 X3.0583 Y24.7302
G01 X3.1519 Y24.7745
G01 X3.2494 Y24.8094
G01 X3.3498 Y24.8345
G01 X3.4522 Y24.8497
G01 X3.5556 Y24.8548
G01 X22.5298 Y24.8548
G01 X22.6332 Y24.8497
G01 X22.7356 Y24.8345
G01 X22.8361 Y24.8094
G01 X22.9335 Y24.7745
G01 X23.0271 Y24.7302
G01 X23.1159 Y24.6770
G01 X23.1991 Y24.6153
G01 X23.2758 Y24.5458
G01 X23.3453 Y24.4691
G01 X23.4070 Y24.3859
G01 X23.4602 Y24.2971
G01 X23.5045 Y24.2035
G01 X23.5394 Y24.1061
G01 X23.5645 Y24.0056
G01 X23.5797 Y23.9032
G01 X23.5848 Y23.7998
G01 X23.5848 Y2.8702
G01 X23.5797 Y2.7668
G01 X23.5645 Y2.6644
G01 X23.5394 Y2.5639
G01 X23.5045 Y2.4665
G01 X23.4602 Y2.3729
G01 X23.4070 Y2.2841
G01 X23.3453 Y2.2009
G01 X23.2758 Y2.1242
G01 X23.1991 Y2.0547
G01 X23.1159 Y1.9930
G01 X23.0271 Y1.9398
G01 X22.9335 Y1.8955
G01 X22.8361 Y1.8606
G01 X22.7356 Y1.8355
G01 X22.6332 Y1.8203
G01 X22.5298 Y1.8152
G00 X22.5298 Y1.8152
G01 F30.00
G01 Z-2.5000
G01 F30.00
G01 X3.5556 Y1.8152
G01 X3.4522 Y1.8203
G01 X3.3498 Y1.8355
G01 X3.2494 Y1.8606
G01 X3.1519 Y1.8955
G01 X3.0583 Y1.9398
G01 X2.9695 Y1.9930
G01 X2.8863 Y2.0547
G01 X2.8096 Y2.1242
G01 X2.7401 Y2.2009
G01 X2.6784 Y2.2841
G01 X2.6252 Y2.3729
G01 X2.5809 Y2.4665
G01 X2.5460 Y2.5639
G01 X2.5209 Y2.6644
G01 X2.5057 Y2.7668
G01 X2.5006 Y2.8702
G01 X2.5006 Y23.7998
G01 X2.5057 Y23.9032
G01 X2.5209 Y24.0056
G01 X2.5460 Y24.1061
G01 X2.5809 Y24.2035
G01 X2.6252 Y24.2971
G01 X2.6784 Y24.3859
G01 X2.7401 Y24.4691
G01 X2.8096 Y24.5458
G01 X2.8863 Y24.6153
G01 X2.9695 Y24.6770
G01 X3.0583 Y24.7302
G01 X3.1519 Y24.7745
G01 X3.2494 Y24.8094
G01 X3.3498 Y24.8345
G01 X3.4522 Y24.8497
G01 X3.5556 Y24.8548
G01 X22.5298 Y24.8548
G01 X22.6332 Y24.8497
G01 X22.7356 Y24.8345
G01 X22.8361 Y24.8094
G01 X22.9335 Y24.7745
G01 X23.0271 Y24.7302
G01 X23.1159 Y24.6770
G01 X23.1991 Y24.6153
G01 X23.2758 Y24.5458
G01 X23.3453 Y24.4691
G01 X23.4070 Y24.3859
G01 X23.4602 Y24.2971
G01 X23.5045 Y24.2035
G01 X23.5394 Y24.1061
G01 X23.5645 Y24.0056
G01 X23.5797 Y23.9032
G01 X23.5848 Y23.7998
G01 X23.5848 Y2.8702
G01 X23.5797 Y2.7668
G01 X23.5645 Y2.6644
G01 X23.5394 Y2.5639
G01 X23.5045 Y2.4665
G01 X23.4602 Y2.3729
G01 X23.4070 Y2.2841
G01 X23.3453 Y2.2009
G01 X23.2758 Y2.1242
G01 X23.1991 Y2.0547
G01 X23.1159 Y1.9930
G01 X23.0271 Y1.9398
G01 X22.9335 Y1.8955
G01 X22.8361 Y1.8606
G01 X22.7356 Y1.8355
G01 X22.6332 Y1.8203
G01 X22.5298 Y1.8152
G00 Z5.0000
M05
G00 Z5.0000
G00 Z12.70
G00 X0.0 Y0.0

M02