(G-CODE GENERATED BY FLATCAM v8.96 - www.flatcam.org - Version Date: 2019/08/23)

(Name: drill_1_16.xln_cnc)
(Type: G-code from Excellon)
(Units: MM)

(Created on Sunday, 27 October 2019 at 15:36)

(Feedrate: 40.0 mm/min)
(Feedrate rapids 800.0009 mm/min)

(Z_Cut: -3.0 mm)
(Z_Move: 3.0 mm)
(Z Toolchange: 12.7 mm)
(X,Y Toolchange: 0.0000, 0.0000 mm)
(Z Start: None mm)
(Z End: 12.7 mm)
(Steps per circle: 128)
(Postprocessor Excellon: default)

(X range:    4.5720 ...   22.0980  mm)
(Y range:    3.3020 ...   23.3680  mm)

(Spindle Speed: None RPM)

G21
G90
G94

G01 F40.00
G00 Z3.0000

M03
G00 X11.4300 Y20.3200
G01 Z-3.0000
G01 Z0
G00 Z3.0000
G00 X11.4300 Y10.1600
G01 Z-3.0000
G01 Z0
G00 Z3.0000
M03
G00 X16.5100 Y22.8600
G01 Z-3.0000
G01 Z0
G00 Z3.0000
G00 X19.0500 Y22.8600
G01 Z-3.0000
G01 Z0
G00 Z3.0000
G00 X21.5900 Y22.8600
G01 Z-3.0000
G01 Z0
G00 Z3.0000
G00 X21.5900 Y3.8100
G01 Z-3.0000
G01 Z0
G00 Z3.0000
G00 X19.0500 Y3.8100
G01 Z-3.0000
G01 Z0
G00 Z3.0000
G00 X16.5100 Y3.8100
G01 Z-3.0000
G01 Z0
G00 Z3.0000
G00 X13.9700 Y3.8100
G01 Z-3.0000
G01 Z0
G00 Z3.0000
G00 X5.0800 Y11.4300
G01 Z-3.0000
G01 Z0
G00 Z3.0000
G00 X5.0800 Y13.9700
G01 Z-3.0000
G01 Z0
G00 Z3.0000
G00 X5.0800 Y16.5100
G01 Z-3.0000
G01 Z0
G00 Z3.0000
M05
G00 Z12.70
G00 X0.0 Y0.0

M02