(G-CODE GENERATED BY FLATCAM v8.96 - www.flatcam.org - Version Date: 2019/08/23)

(Name: final_cutout)
(Type: G-code from Geometry)
(Units: MM)

(Created on Monday, 25 November 2019 at 19:08)

(TOOL DIAMETER: 0.11 mm)
(Feedrate: 50.0 mm/min)
(Feedrate_Z: 50.0 mm/min)
(Feedrate rapids 79.9998 mm/min)

(Z_Cut: -2.0 mm)
(DepthPerCut: 0.25 mm <=>8 passes)
(Z_Move: 5.0 mm)
(Z Toolchange: 12.7 mm)
(X,Y Toolchange: 0.0000, 0.0000 mm)
(Z Start: None mm)
(Z End: 12.7 mm)
(Steps per circle: 128)
(Postprocessor Geometry: default)

(X range:   -0.4444 ...   26.5298  mm)
(Y range:   -1.1298 ...   27.7998  mm)

(Spindle Speed: None RPM)

G21
G90
G94

G01 F50.00
G00 Z5.0000

M03
G00 X22.5298 Y-1.1298
G01 F50.00
G01 Z-0.2500
G01 F50.00
G01 X3.5556 Y-1.1298
G01 X3.1636 Y-1.1105
G01 X2.7753 Y-1.0529
G01 X2.3945 Y-0.9576
G01 X2.0249 Y-0.8253
G01 X1.6700 Y-0.6575
G01 X1.3333 Y-0.4557
G01 X1.0180 Y-0.2218
G01 X0.7272 Y0.0418
G01 X0.4636 Y0.3326
G01 X0.2297 Y0.6479
G01 X0.0279 Y0.9846
G01 X-0.1399 Y1.3395
G01 X-0.2721 Y1.7091
G01 X-0.3675 Y2.0898
G01 X-0.4251 Y2.4781
G01 X-0.4444 Y2.8702
G01 X-0.4444 Y23.7998
G01 X-0.4251 Y24.1919
G01 X-0.3675 Y24.5802
G01 X-0.2721 Y24.9609
G01 X-0.1399 Y25.3305
G01 X0.0279 Y25.6854
G01 X0.2297 Y26.0221
G01 X0.4636 Y26.3374
G01 X0.7272 Y26.6282
G01 X1.0180 Y26.8918
G01 X1.3333 Y27.1257
G01 X1.6700 Y27.3275
G01 X2.0249 Y27.4953
G01 X2.3945 Y27.6276
G01 X2.7753 Y27.7229
G01 X3.1636 Y27.7805
G01 X3.5556 Y27.7998
G01 X22.5298 Y27.7998
G01 X22.9219 Y27.7805
G01 X23.3102 Y27.7229
G01 X23.6909 Y27.6276
G01 X24.0605 Y27.4953
G01 X24.4154 Y27.3275
G01 X24.7521 Y27.1257
G01 X25.0674 Y26.8918
G01 X25.3582 Y26.6282
G01 X25.6218 Y26.3374
G01 X25.8557 Y26.0221
G01 X26.0575 Y25.6854
G01 X26.2253 Y25.3305
G01 X26.3576 Y24.9609
G01 X26.4529 Y24.5802
G01 X26.5105 Y24.1919
G01 X26.5298 Y23.7998
G01 X26.5298 Y2.8702
G01 X26.5105 Y2.4781
G01 X26.4529 Y2.0898
G01 X26.3576 Y1.7091
G01 X26.2253 Y1.3395
G01 X26.0575 Y0.9846
G01 X25.8557 Y0.6479
G01 X25.6218 Y0.3326
G01 X25.3582 Y0.0418
G01 X25.0674 Y-0.2218
G01 X24.7521 Y-0.4557
G01 X24.4154 Y-0.6575
G01 X24.0605 Y-0.8253
G01 X23.6909 Y-0.9576
G01 X23.3102 Y-1.0529
G01 X22.9219 Y-1.1105
G01 X22.5298 Y-1.1298
G00 X22.5298 Y-1.1298
G01 F50.00
G01 Z-0.5000
G01 F50.00
G01 X3.5556 Y-1.1298
G01 X3.1636 Y-1.1105
G01 X2.7753 Y-1.0529
G01 X2.3945 Y-0.9576
G01 X2.0249 Y-0.8253
G01 X1.6700 Y-0.6575
G01 X1.3333 Y-0.4557
G01 X1.0180 Y-0.2218
G01 X0.7272 Y0.0418
G01 X0.4636 Y0.3326
G01 X0.2297 Y0.6479
G01 X0.0279 Y0.9846
G01 X-0.1399 Y1.3395
G01 X-0.2721 Y1.7091
G01 X-0.3675 Y2.0898
G01 X-0.4251 Y2.4781
G01 X-0.4444 Y2.8702
G01 X-0.4444 Y23.7998
G01 X-0.4251 Y24.1919
G01 X-0.3675 Y24.5802
G01 X-0.2721 Y24.9609
G01 X-0.1399 Y25.3305
G01 X0.0279 Y25.6854
G01 X0.2297 Y26.0221
G01 X0.4636 Y26.3374
G01 X0.7272 Y26.6282
G01 X1.0180 Y26.8918
G01 X1.3333 Y27.1257
G01 X1.6700 Y27.3275
G01 X2.0249 Y27.4953
G01 X2.3945 Y27.6276
G01 X2.7753 Y27.7229
G01 X3.1636 Y27.7805
G01 X3.5556 Y27.7998
G01 X22.5298 Y27.7998
G01 X22.9219 Y27.7805
G01 X23.3102 Y27.7229
G01 X23.6909 Y27.6276
G01 X24.0605 Y27.4953
G01 X24.4154 Y27.3275
G01 X24.7521 Y27.1257
G01 X25.0674 Y26.8918
G01 X25.3582 Y26.6282
G01 X25.6218 Y26.3374
G01 X25.8557 Y26.0221
G01 X26.0575 Y25.6854
G01 X26.2253 Y25.3305
G01 X26.3576 Y24.9609
G01 X26.4529 Y24.5802
G01 X26.5105 Y24.1919
G01 X26.5298 Y23.7998
G01 X26.5298 Y2.8702
G01 X26.5105 Y2.4781
G01 X26.4529 Y2.0898
G01 X26.3576 Y1.7091
G01 X26.2253 Y1.3395
G01 X26.0575 Y0.9846
G01 X25.8557 Y0.6479
G01 X25.6218 Y0.3326
G01 X25.3582 Y0.0418
G01 X25.0674 Y-0.2218
G01 X24.7521 Y-0.4557
G01 X24.4154 Y-0.6575
G01 X24.0605 Y-0.8253
G01 X23.6909 Y-0.9576
G01 X23.3102 Y-1.0529
G01 X22.9219 Y-1.1105
G01 X22.5298 Y-1.1298
G00 X22.5298 Y-1.1298
G01 F50.00
G01 Z-0.7500
G01 F50.00
G01 X3.5556 Y-1.1298
G01 X3.1636 Y-1.1105
G01 X2.7753 Y-1.0529
G01 X2.3945 Y-0.9576
G01 X2.0249 Y-0.8253
G01 X1.6700 Y-0.6575
G01 X1.3333 Y-0.4557
G01 X1.0180 Y-0.2218
G01 X0.7272 Y0.0418
G01 X0.4636 Y0.3326
G01 X0.2297 Y0.6479
G01 X0.0279 Y0.9846
G01 X-0.1399 Y1.3395
G01 X-0.2721 Y1.7091
G01 X-0.3675 Y2.0898
G01 X-0.4251 Y2.4781
G01 X-0.4444 Y2.8702
G01 X-0.4444 Y23.7998
G01 X-0.4251 Y24.1919
G01 X-0.3675 Y24.5802
G01 X-0.2721 Y24.9609
G01 X-0.1399 Y25.3305
G01 X0.0279 Y25.6854
G01 X0.2297 Y26.0221
G01 X0.4636 Y26.3374
G01 X0.7272 Y26.6282
G01 X1.0180 Y26.8918
G01 X1.3333 Y27.1257
G01 X1.6700 Y27.3275
G01 X2.0249 Y27.4953
G01 X2.3945 Y27.6276
G01 X2.7753 Y27.7229
G01 X3.1636 Y27.7805
G01 X3.5556 Y27.7998
G01 X22.5298 Y27.7998
G01 X22.9219 Y27.7805
G01 X23.3102 Y27.7229
G01 X23.6909 Y27.6276
G01 X24.0605 Y27.4953
G01 X24.4154 Y27.3275
G01 X24.7521 Y27.1257
G01 X25.0674 Y26.8918
G01 X25.3582 Y26.6282
G01 X25.6218 Y26.3374
G01 X25.8557 Y26.0221
G01 X26.0575 Y25.6854
G01 X26.2253 Y25.3305
G01 X26.3576 Y24.9609
G01 X26.4529 Y24.5802
G01 X26.5105 Y24.1919
G01 X26.5298 Y23.7998
G01 X26.5298 Y2.8702
G01 X26.5105 Y2.4781
G01 X26.4529 Y2.0898
G01 X26.3576 Y1.7091
G01 X26.2253 Y1.3395
G01 X26.0575 Y0.9846
G01 X25.8557 Y0.6479
G01 X25.6218 Y0.3326
G01 X25.3582 Y0.0418
G01 X25.0674 Y-0.2218
G01 X24.7521 Y-0.4557
G01 X24.4154 Y-0.6575
G01 X24.0605 Y-0.8253
G01 X23.6909 Y-0.9576
G01 X23.3102 Y-1.0529
G01 X22.9219 Y-1.1105
G01 X22.5298 Y-1.1298
G00 X22.5298 Y-1.1298
G01 F50.00
G01 Z-1.0000
G01 F50.00
G01 X3.5556 Y-1.1298
G01 X3.1636 Y-1.1105
G01 X2.7753 Y-1.0529
G01 X2.3945 Y-0.9576
G01 X2.0249 Y-0.8253
G01 X1.6700 Y-0.6575
G01 X1.3333 Y-0.4557
G01 X1.0180 Y-0.2218
G01 X0.7272 Y0.0418
G01 X0.4636 Y0.3326
G01 X0.2297 Y0.6479
G01 X0.0279 Y0.9846
G01 X-0.1399 Y1.3395
G01 X-0.2721 Y1.7091
G01 X-0.3675 Y2.0898
G01 X-0.4251 Y2.4781
G01 X-0.4444 Y2.8702
G01 X-0.4444 Y23.7998
G01 X-0.4251 Y24.1919
G01 X-0.3675 Y24.5802
G01 X-0.2721 Y24.9609
G01 X-0.1399 Y25.3305
G01 X0.0279 Y25.6854
G01 X0.2297 Y26.0221
G01 X0.4636 Y26.3374
G01 X0.7272 Y26.6282
G01 X1.0180 Y26.8918
G01 X1.3333 Y27.1257
G01 X1.6700 Y27.3275
G01 X2.0249 Y27.4953
G01 X2.3945 Y27.6276
G01 X2.7753 Y27.7229
G01 X3.1636 Y27.7805
G01 X3.5556 Y27.7998
G01 X22.5298 Y27.7998
G01 X22.9219 Y27.7805
G01 X23.3102 Y27.7229
G01 X23.6909 Y27.6276
G01 X24.0605 Y27.4953
G01 X24.4154 Y27.3275
G01 X24.7521 Y27.1257
G01 X25.0674 Y26.8918
G01 X25.3582 Y26.6282
G01 X25.6218 Y26.3374
G01 X25.8557 Y26.0221
G01 X26.0575 Y25.6854
G01 X26.2253 Y25.3305
G01 X26.3576 Y24.9609
G01 X26.4529 Y24.5802
G01 X26.5105 Y24.1919
G01 X26.5298 Y23.7998
G01 X26.5298 Y2.8702
G01 X26.5105 Y2.4781
G01 X26.4529 Y2.0898
G01 X26.3576 Y1.7091
G01 X26.2253 Y1.3395
G01 X26.0575 Y0.9846
G01 X25.8557 Y0.6479
G01 X25.6218 Y0.3326
G01 X25.3582 Y0.0418
G01 X25.0674 Y-0.2218
G01 X24.7521 Y-0.4557
G01 X24.4154 Y-0.6575
G01 X24.0605 Y-0.8253
G01 X23.6909 Y-0.9576
G01 X23.3102 Y-1.0529
G01 X22.9219 Y-1.1105
G01 X22.5298 Y-1.1298
G00 X22.5298 Y-1.1298
G01 F50.00
G01 Z-1.2500
G01 F50.00
G01 X3.5556 Y-1.1298
G01 X3.1636 Y-1.1105
G01 X2.7753 Y-1.0529
G01 X2.3945 Y-0.9576
G01 X2.0249 Y-0.8253
G01 X1.6700 Y-0.6575
G01 X1.3333 Y-0.4557
G01 X1.0180 Y-0.2218
G01 X0.7272 Y0.0418
G01 X0.4636 Y0.3326
G01 X0.2297 Y0.6479
G01 X0.0279 Y0.9846
G01 X-0.1399 Y1.3395
G01 X-0.2721 Y1.7091
G01 X-0.3675 Y2.0898
G01 X-0.4251 Y2.4781
G01 X-0.4444 Y2.8702
G01 X-0.4444 Y23.7998
G01 X-0.4251 Y24.1919
G01 X-0.3675 Y24.5802
G01 X-0.2721 Y24.9609
G01 X-0.1399 Y25.3305
G01 X0.0279 Y25.6854
G01 X0.2297 Y26.0221
G01 X0.4636 Y26.3374
G01 X0.7272 Y26.6282
G01 X1.0180 Y26.8918
G01 X1.3333 Y27.1257
G01 X1.6700 Y27.3275
G01 X2.0249 Y27.4953
G01 X2.3945 Y27.6276
G01 X2.7753 Y27.7229
G01 X3.1636 Y27.7805
G01 X3.5556 Y27.7998
G01 X22.5298 Y27.7998
G01 X22.9219 Y27.7805
G01 X23.3102 Y27.7229
G01 X23.6909 Y27.6276
G01 X24.0605 Y27.4953
G01 X24.4154 Y27.3275
G01 X24.7521 Y27.1257
G01 X25.0674 Y26.8918
G01 X25.3582 Y26.6282
G01 X25.6218 Y26.3374
G01 X25.8557 Y26.0221
G01 X26.0575 Y25.6854
G01 X26.2253 Y25.3305
G01 X26.3576 Y24.9609
G01 X26.4529 Y24.5802
G01 X26.5105 Y24.1919
G01 X26.5298 Y23.7998
G01 X26.5298 Y2.8702
G01 X26.5105 Y2.4781
G01 X26.4529 Y2.0898
G01 X26.3576 Y1.7091
G01 X26.2253 Y1.3395
G01 X26.0575 Y0.9846
G01 X25.8557 Y0.6479
G01 X25.6218 Y0.3326
G01 X25.3582 Y0.0418
G01 X25.0674 Y-0.2218
G01 X24.7521 Y-0.4557
G01 X24.4154 Y-0.6575
G01 X24.0605 Y-0.8253
G01 X23.6909 Y-0.9576
G01 X23.3102 Y-1.0529
G01 X22.9219 Y-1.1105
G01 X22.5298 Y-1.1298
G00 X22.5298 Y-1.1298
G01 F50.00
G01 Z-1.5000
G01 F50.00
G01 X3.5556 Y-1.1298
G01 X3.1636 Y-1.1105
G01 X2.7753 Y-1.0529
G01 X2.3945 Y-0.9576
G01 X2.0249 Y-0.8253
G01 X1.6700 Y-0.6575
G01 X1.3333 Y-0.4557
G01 X1.0180 Y-0.2218
G01 X0.7272 Y0.0418
G01 X0.4636 Y0.3326
G01 X0.2297 Y0.6479
G01 X0.0279 Y0.9846
G01 X-0.1399 Y1.3395
G01 X-0.2721 Y1.7091
G01 X-0.3675 Y2.0898
G01 X-0.4251 Y2.4781
G01 X-0.4444 Y2.8702
G01 X-0.4444 Y23.7998
G01 X-0.4251 Y24.1919
G01 X-0.3675 Y24.5802
G01 X-0.2721 Y24.9609
G01 X-0.1399 Y25.3305
G01 X0.0279 Y25.6854
G01 X0.2297 Y26.0221
G01 X0.4636 Y26.3374
G01 X0.7272 Y26.6282
G01 X1.0180 Y26.8918
G01 X1.3333 Y27.1257
G01 X1.6700 Y27.3275
G01 X2.0249 Y27.4953
G01 X2.3945 Y27.6276
G01 X2.7753 Y27.7229
G01 X3.1636 Y27.7805
G01 X3.5556 Y27.7998
G01 X22.5298 Y27.7998
G01 X22.9219 Y27.7805
G01 X23.3102 Y27.7229
G01 X23.6909 Y27.6276
G01 X24.0605 Y27.4953
G01 X24.4154 Y27.3275
G01 X24.7521 Y27.1257
G01 X25.0674 Y26.8918
G01 X25.3582 Y26.6282
G01 X25.6218 Y26.3374
G01 X25.8557 Y26.0221
G01 X26.0575 Y25.6854
G01 X26.2253 Y25.3305
G01 X26.3576 Y24.9609
G01 X26.4529 Y24.5802
G01 X26.5105 Y24.1919
G01 X26.5298 Y23.7998
G01 X26.5298 Y2.8702
G01 X26.5105 Y2.4781
G01 X26.4529 Y2.0898
G01 X26.3576 Y1.7091
G01 X26.2253 Y1.3395
G01 X26.0575 Y0.9846
G01 X25.8557 Y0.6479
G01 X25.6218 Y0.3326
G01 X25.3582 Y0.0418
G01 X25.0674 Y-0.2218
G01 X24.7521 Y-0.4557
G01 X24.4154 Y-0.6575
G01 X24.0605 Y-0.8253
G01 X23.6909 Y-0.9576
G01 X23.3102 Y-1.0529
G01 X22.9219 Y-1.1105
G01 X22.5298 Y-1.1298
G00 X22.5298 Y-1.1298
G01 F50.00
G01 Z-1.7500
G01 F50.00
G01 X3.5556 Y-1.1298
G01 X3.1636 Y-1.1105
G01 X2.7753 Y-1.0529
G01 X2.3945 Y-0.9576
G01 X2.0249 Y-0.8253
G01 X1.6700 Y-0.6575
G01 X1.3333 Y-0.4557
G01 X1.0180 Y-0.2218
G01 X0.7272 Y0.0418
G01 X0.4636 Y0.3326
G01 X0.2297 Y0.6479
G01 X0.0279 Y0.9846
G01 X-0.1399 Y1.3395
G01 X-0.2721 Y1.7091
G01 X-0.3675 Y2.0898
G01 X-0.4251 Y2.4781
G01 X-0.4444 Y2.8702
G01 X-0.4444 Y23.7998
G01 X-0.4251 Y24.1919
G01 X-0.3675 Y24.5802
G01 X-0.2721 Y24.9609
G01 X-0.1399 Y25.3305
G01 X0.0279 Y25.6854
G01 X0.2297 Y26.0221
G01 X0.4636 Y26.3374
G01 X0.7272 Y26.6282
G01 X1.0180 Y26.8918
G01 X1.3333 Y27.1257
G01 X1.6700 Y27.3275
G01 X2.0249 Y27.4953
G01 X2.3945 Y27.6276
G01 X2.7753 Y27.7229
G01 X3.1636 Y27.7805
G01 X3.5556 Y27.7998
G01 X22.5298 Y27.7998
G01 X22.9219 Y27.7805
G01 X23.3102 Y27.7229
G01 X23.6909 Y27.6276
G01 X24.0605 Y27.4953
G01 X24.4154 Y27.3275
G01 X24.7521 Y27.1257
G01 X25.0674 Y26.8918
G01 X25.3582 Y26.6282
G01 X25.6218 Y26.3374
G01 X25.8557 Y26.0221
G01 X26.0575 Y25.6854
G01 X26.2253 Y25.3305
G01 X26.3576 Y24.9609
G01 X26.4529 Y24.5802
G01 X26.5105 Y24.1919
G01 X26.5298 Y23.7998
G01 X26.5298 Y2.8702
G01 X26.5105 Y2.4781
G01 X26.4529 Y2.0898
G01 X26.3576 Y1.7091
G01 X26.2253 Y1.3395
G01 X26.0575 Y0.9846
G01 X25.8557 Y0.6479
G01 X25.6218 Y0.3326
G01 X25.3582 Y0.0418
G01 X25.0674 Y-0.2218
G01 X24.7521 Y-0.4557
G01 X24.4154 Y-0.6575
G01 X24.0605 Y-0.8253
G01 X23.6909 Y-0.9576
G01 X23.3102 Y-1.0529
G01 X22.9219 Y-1.1105
G01 X22.5298 Y-1.1298
G00 X22.5298 Y-1.1298
G01 F50.00
G01 Z-2.0000
G01 F50.00
G01 X3.5556 Y-1.1298
G01 X3.1636 Y-1.1105
G01 X2.7753 Y-1.0529
G01 X2.3945 Y-0.9576
G01 X2.0249 Y-0.8253
G01 X1.6700 Y-0.6575
G01 X1.3333 Y-0.4557
G01 X1.0180 Y-0.2218
G01 X0.7272 Y0.0418
G01 X0.4636 Y0.3326
G01 X0.2297 Y0.6479
G01 X0.0279 Y0.9846
G01 X-0.1399 Y1.3395
G01 X-0.2721 Y1.7091
G01 X-0.3675 Y2.0898
G01 X-0.4251 Y2.4781
G01 X-0.4444 Y2.8702
G01 X-0.4444 Y23.7998
G01 X-0.4251 Y24.1919
G01 X-0.3675 Y24.5802
G01 X-0.2721 Y24.9609
G01 X-0.1399 Y25.3305
G01 X0.0279 Y25.6854
G01 X0.2297 Y26.0221
G01 X0.4636 Y26.3374
G01 X0.7272 Y26.6282
G01 X1.0180 Y26.8918
G01 X1.3333 Y27.1257
G01 X1.6700 Y27.3275
G01 X2.0249 Y27.4953
G01 X2.3945 Y27.6276
G01 X2.7753 Y27.7229
G01 X3.1636 Y27.7805
G01 X3.5556 Y27.7998
G01 X22.5298 Y27.7998
G01 X22.9219 Y27.7805
G01 X23.3102 Y27.7229
G01 X23.6909 Y27.6276
G01 X24.0605 Y27.4953
G01 X24.4154 Y27.3275
G01 X24.7521 Y27.1257
G01 X25.0674 Y26.8918
G01 X25.3582 Y26.6282
G01 X25.6218 Y26.3374
G01 X25.8557 Y26.0221
G01 X26.0575 Y25.6854
G01 X26.2253 Y25.3305
G01 X26.3576 Y24.9609
G01 X26.4529 Y24.5802
G01 X26.5105 Y24.1919
G01 X26.5298 Y23.7998
G01 X26.5298 Y2.8702
G01 X26.5105 Y2.4781
G01 X26.4529 Y2.0898
G01 X26.3576 Y1.7091
G01 X26.2253 Y1.3395
G01 X26.0575 Y0.9846
G01 X25.8557 Y0.6479
G01 X25.6218 Y0.3326
G01 X25.3582 Y0.0418
G01 X25.0674 Y-0.2218
G01 X24.7521 Y-0.4557
G01 X24.4154 Y-0.6575
G01 X24.0605 Y-0.8253
G01 X23.6909 Y-0.9576
G01 X23.3102 Y-1.0529
G01 X22.9219 Y-1.1105
G01 X22.5298 Y-1.1298
G00 Z5.0000
M05
G00 Z5.0000
G00 Z12.70
G00 X0.0 Y0.0

M02