(G-CODE GENERATED BY FLATCAM v8.96 - www.flatcam.org - Version Date: 2019/08/23)

(Name: copper_top.gbr_noncopper_cnc)
(Type: G-code from Geometry)
(Units: IN)

(Created on Monday, 16 September 2019 at 15:10)

(TOOL DIAMETER: 0.0045 in)
(Feedrate: 3.1496 in/min)
(Feedrate_Z: 3.1496 in/min)
(Feedrate rapids 3.1496 in/min)

(Z_Cut: -0.0945 in)
(Z_Move: 0.0787 in)
(Z Toolchange: 0.5 in)
(X,Y Toolchange: 0.0000, 0.0000 in)
(Z Start: None in)
(Z End: 0.5 in)
(Steps per circle: 128)
(Postprocessor Geometry: default)

(X range:    0.1757 ...    1.0087  in)
(Y range:    0.1363 ...    0.6693  in)

(Spindle Speed: None RPM)

G20
G90
G94

G01 F3.15
G00 Z0.0787

M03
G00 X0.1757 Y0.1363
G01 F3.15
G01 Z-0.0945
G01 F3.15
G01 X0.1757 Y0.6693
G01 X1.0087 Y0.6693
G01 X1.0087 Y0.1363
G01 X0.1757 Y0.1363
G00 Z0.0787
G00 X0.2168 Y0.1368
G01 F3.15
G01 Z-0.0945
G01 F3.15
G01 X0.2210 Y0.1374
G01 X0.2251 Y0.1393
G01 X0.2301 Y0.1443
G01 X0.2320 Y0.1484
G01 X0.2326 Y0.1528
G01 X0.2321 Y0.1568
G01 X0.2303 Y0.1609
G01 X0.2258 Y0.1659
G01 X0.2195 Y0.1689
G01 X0.2083 Y0.1801
G01 X0.2057 Y0.1857
G01 X0.2011 Y0.1905
G01 X0.1970 Y0.1924
G01 X0.1926 Y0.1932
G01 X0.1882 Y0.1927
G01 X0.1841 Y0.1909
G01 X0.1791 Y0.1864
G01 X0.1771 Y0.1824
G01 X0.1763 Y0.1785
G01 X0.1763 Y0.1510
G01 X0.1784 Y0.1447
G01 X0.1830 Y0.1397
G01 X0.1891 Y0.1371
G01 X0.2168 Y0.1368
G00 Z0.0787
G00 X0.2982 Y0.3319
G01 F3.15
G01 Z-0.0945
G01 F3.15
G01 X0.3022 Y0.3324
G01 X0.3063 Y0.3341
G01 X0.3144 Y0.3415
G01 X0.3179 Y0.3467
G01 X0.3191 Y0.3533
G01 X0.3183 Y0.3577
G01 X0.3164 Y0.3617
G01 X0.3095 Y0.3690
G01 X0.3051 Y0.3721
G01 X0.2986 Y0.3737
G01 X0.2921 Y0.3725
G01 X0.2872 Y0.3693
G01 X0.2834 Y0.3638
G01 X0.2822 Y0.3577
G01 X0.2824 Y0.3457
G01 X0.2847 Y0.3394
G01 X0.2901 Y0.3341
G01 X0.2942 Y0.3324
G01 X0.2982 Y0.3319
G00 Z0.0787
G00 X0.3772 Y0.2908
G01 F3.15
G01 Z-0.0945
G01 F3.15
G01 X0.4752 Y0.2908
G01 X0.4803 Y0.2919
G01 X0.4837 Y0.2943
G01 X0.5442 Y0.3548
G01 X0.5642 Y0.3548
G01 X0.5642 Y0.3768
G01 X0.5430 Y0.3768
G01 X0.5382 Y0.3778
G01 X0.5334 Y0.3768
G01 X0.5122 Y0.3768
G01 X0.5122 Y0.3568
G01 X0.4702 Y0.3148
G01 X0.3772 Y0.3148
G01 X0.3719 Y0.3248
G01 X0.3642 Y0.3325
G01 X0.3547 Y0.3376
G01 X0.3476 Y0.3394
G01 X0.3422 Y0.3398
G01 X0.3315 Y0.3382
G01 X0.3216 Y0.3336
G01 X0.3160 Y0.3290
G01 X0.3125 Y0.3248
G01 X0.3074 Y0.3153
G01 X0.3056 Y0.3082
G01 X0.3052 Y0.3010
G01 X0.3063 Y0.2938
G01 X0.3088 Y0.2870
G01 X0.3125 Y0.2808
G01 X0.3174 Y0.2754
G01 X0.3232 Y0.2711
G01 X0.3297 Y0.2680
G01 X0.3368 Y0.2662
G01 X0.3440 Y0.2658
G01 X0.3512 Y0.2669
G01 X0.3580 Y0.2694
G01 X0.3642 Y0.2731
G01 X0.3696 Y0.2780
G01 X0.3739 Y0.2838
G01 X0.3772 Y0.2908
G00 Z0.0787
G00 X0.4597 Y0.3248
G01 F3.15
G01 Z-0.0945
G01 F3.15
G01 X0.4643 Y0.3256
G01 X0.4698 Y0.3286
G01 X0.4948 Y0.3535
G01 X0.4975 Y0.3571
G01 X0.4992 Y0.3621
G01 X0.4989 Y0.3688
G01 X0.4965 Y0.3741
G01 X0.4916 Y0.3786
G01 X0.4874 Y0.3803
G01 X0.4835 Y0.3808
G01 X0.3906 Y0.3806
G01 X0.3863 Y0.3792
G01 X0.3830 Y0.3770
G01 X0.3700 Y0.3641
G01 X0.3663 Y0.3585
G01 X0.3653 Y0.3519
G01 X0.3661 Y0.3479
G01 X0.3680 Y0.3439
G01 X0.3823 Y0.3292
G01 X0.3876 Y0.3259
G01 X0.3933 Y0.3248
G01 X0.4597 Y0.3248
G00 Z0.0787
G00 X0.4839 Y0.4248
G01 F3.15
G01 Z-0.0945
G01 F3.15
G01 X0.4908 Y0.4266
G01 X0.4945 Y0.4292
G01 X0.4968 Y0.4319
G01 X0.4994 Y0.4390
G01 X0.4992 Y0.4435
G01 X0.4982 Y0.4469
G01 X0.4948 Y0.4521
G01 X0.4704 Y0.4764
G01 X0.4672 Y0.4788
G01 X0.4630 Y0.4804
G01 X0.3933 Y0.4808
G01 X0.3889 Y0.4802
G01 X0.3830 Y0.4770
G01 X0.3700 Y0.4641
G01 X0.3675 Y0.4609
G01 X0.3658 Y0.4568
G01 X0.3655 Y0.4501
G01 X0.3683 Y0.4435
G01 X0.3823 Y0.4292
G01 X0.3856 Y0.4268
G01 X0.3897 Y0.4252
G01 X0.4839 Y0.4248
G00 Z0.0787
G00 X0.3772 Y0.4148
G01 F3.15
G01 Z-0.0945
G01 F3.15
G01 X0.3739 Y0.4218
G01 X0.3696 Y0.4276
G01 X0.3642 Y0.4325
G01 X0.3580 Y0.4362
G01 X0.3512 Y0.4387
G01 X0.3440 Y0.4398
G01 X0.3368 Y0.4394
G01 X0.3297 Y0.4376
G01 X0.3232 Y0.4345
G01 X0.3174 Y0.4302
G01 X0.3125 Y0.4248
G01 X0.3088 Y0.4186
G01 X0.3063 Y0.4118
G01 X0.3052 Y0.4046
G01 X0.3056 Y0.3974
G01 X0.3074 Y0.3903
G01 X0.3125 Y0.3808
G01 X0.3202 Y0.3731
G01 X0.3248 Y0.3702
G01 X0.3315 Y0.3674
G01 X0.3422 Y0.3658
G01 X0.3494 Y0.3665
G01 X0.3547 Y0.3680
G01 X0.3642 Y0.3731
G01 X0.3719 Y0.3808
G01 X0.3772 Y0.3908
G01 X0.5382 Y0.3908
G01 X0.5430 Y0.3918
G01 X0.5642 Y0.3918
G01 X0.5642 Y0.4138
G01 X0.5430 Y0.4138
G01 X0.5382 Y0.4148
G01 X0.3772 Y0.4148
G00 Z0.0787
G00 X0.3772 Y0.4908
G01 F3.15
G01 Z-0.0945
G01 F3.15
G01 X0.4702 Y0.4908
G01 X0.5122 Y0.4488
G01 X0.5122 Y0.4288
G01 X0.5334 Y0.4288
G01 X0.5382 Y0.4278
G01 X0.5430 Y0.4288
G01 X0.5642 Y0.4288
G01 X0.5642 Y0.4508
G01 X0.5442 Y0.4508
G01 X0.4837 Y0.5113
G01 X0.4792 Y0.5141
G01 X0.4752 Y0.5148
G01 X0.3772 Y0.5148
G01 X0.3719 Y0.5248
G01 X0.3642 Y0.5325
G01 X0.3547 Y0.5376
G01 X0.3476 Y0.5394
G01 X0.3422 Y0.5398
G01 X0.3315 Y0.5382
G01 X0.3216 Y0.5336
G01 X0.3160 Y0.5290
G01 X0.3125 Y0.5248
G01 X0.3074 Y0.5153
G01 X0.3056 Y0.5082
G01 X0.3052 Y0.5010
G01 X0.3063 Y0.4938
G01 X0.3088 Y0.4870
G01 X0.3125 Y0.4808
G01 X0.3174 Y0.4754
G01 X0.3232 Y0.4711
G01 X0.3297 Y0.4680
G01 X0.3368 Y0.4662
G01 X0.3440 Y0.4658
G01 X0.3512 Y0.4669
G01 X0.3580 Y0.4694
G01 X0.3642 Y0.4731
G01 X0.3696 Y0.4780
G01 X0.3739 Y0.4838
G01 X0.3772 Y0.4908
G00 Z0.0787
G00 X0.2982 Y0.4319
G01 F3.15
G01 Z-0.0945
G01 F3.15
G01 X0.3022 Y0.4324
G01 X0.3063 Y0.4341
G01 X0.3144 Y0.4415
G01 X0.3179 Y0.4467
G01 X0.3191 Y0.4533
G01 X0.3183 Y0.4577
G01 X0.3164 Y0.4617
G01 X0.3095 Y0.4690
G01 X0.3051 Y0.4721
G01 X0.2986 Y0.4737
G01 X0.2921 Y0.4725
G01 X0.2872 Y0.4693
G01 X0.2834 Y0.4638
G01 X0.2822 Y0.4577
G01 X0.2824 Y0.4457
G01 X0.2847 Y0.4394
G01 X0.2901 Y0.4341
G01 X0.2942 Y0.4324
G01 X0.2982 Y0.4319
G00 Z0.0787
G00 X0.6202 Y0.4288
G01 F3.15
G01 Z-0.0945
G01 F3.15
G01 X0.6414 Y0.4288
G01 X0.6462 Y0.4278
G01 X0.6510 Y0.4288
G01 X0.6722 Y0.4288
G01 X0.6722 Y0.4408
G01 X0.8072 Y0.4408
G01 X0.8125 Y0.4308
G01 X0.8174 Y0.4254
G01 X0.8216 Y0.4220
G01 X0.8280 Y0.4186
G01 X0.8332 Y0.4169
G01 X0.8404 Y0.4158
G01 X0.8458 Y0.4160
G01 X0.8529 Y0.4174
G01 X0.8596 Y0.4202
G01 X0.8657 Y0.4242
G01 X0.8708 Y0.4293
G01 X0.8748 Y0.4354
G01 X0.8776 Y0.4421
G01 X0.8790 Y0.4492
G01 X0.8790 Y0.4564
G01 X0.8776 Y0.4635
G01 X0.8748 Y0.4702
G01 X0.8708 Y0.4763
G01 X0.8657 Y0.4814
G01 X0.8596 Y0.4854
G01 X0.8529 Y0.4882
G01 X0.8458 Y0.4896
G01 X0.8386 Y0.4896
G01 X0.8280 Y0.4870
G01 X0.8187 Y0.4814
G01 X0.8114 Y0.4734
G01 X0.8072 Y0.4648
G01 X0.6592 Y0.4648
G01 X0.6557 Y0.4643
G01 X0.6511 Y0.4617
G01 X0.6402 Y0.4508
G01 X0.6202 Y0.4508
G01 X0.6202 Y0.4288
G00 Z0.0787
G00 X0.6842 Y0.4270
G01 F3.15
G01 Z-0.0945
G01 F3.15
G01 X0.6779 Y0.4203
G01 X0.6713 Y0.4173
G01 X0.6665 Y0.4127
G01 X0.6640 Y0.4065
G01 X0.6638 Y0.4024
G01 X0.6648 Y0.3981
G01 X0.6673 Y0.3938
G01 X0.6721 Y0.3898
G01 X0.6767 Y0.3881
G01 X0.6836 Y0.3878
G01 X0.6917 Y0.3845
G01 X0.6987 Y0.3777
G01 X0.7048 Y0.3751
G01 X0.7938 Y0.3750
G01 X0.7981 Y0.3764
G01 X0.8024 Y0.3795
G01 X0.8156 Y0.3928
G01 X0.8187 Y0.3992
G01 X0.8188 Y0.4059
G01 X0.8161 Y0.4121
G01 X0.8007 Y0.4276
G01 X0.7942 Y0.4305
G01 X0.6945 Y0.4308
G01 X0.6901 Y0.4302
G01 X0.6842 Y0.4270
G00 Z0.0787
G00 X0.6416 Y0.3439
G01 F3.15
G01 Z-0.0945
G01 F3.15
G01 X0.6362 Y0.3448
G01 X0.6182 Y0.3448
G01 X0.6145 Y0.3463
G01 X0.6117 Y0.3491
G01 X0.6102 Y0.3528
G01 X0.6102 Y0.3788
G01 X0.6117 Y0.3825
G01 X0.6145 Y0.3853
G01 X0.6182 Y0.3868
G01 X0.6378 Y0.3869
G01 X0.6428 Y0.3882
G01 X0.6466 Y0.3906
G01 X0.6495 Y0.3939
G01 X0.6515 Y0.3980
G01 X0.6522 Y0.4024
G01 X0.6517 Y0.4068
G01 X0.6500 Y0.4109
G01 X0.6472 Y0.4144
G01 X0.6435 Y0.4170
G01 X0.6369 Y0.4188
G01 X0.6182 Y0.4188
G01 X0.6145 Y0.4203
G01 X0.6117 Y0.4231
G01 X0.6102 Y0.4268
G01 X0.6102 Y0.4528
G01 X0.6117 Y0.4565
G01 X0.6145 Y0.4593
G01 X0.6182 Y0.4608
G01 X0.6299 Y0.4608
G01 X0.6360 Y0.4622
G01 X0.6398 Y0.4646
G01 X0.6467 Y0.4715
G01 X0.6548 Y0.4748
G01 X0.7938 Y0.4750
G01 X0.7981 Y0.4764
G01 X0.8014 Y0.4786
G01 X0.8156 Y0.4926
G01 X0.8328 Y0.4998
G01 X0.8516 Y0.4998
G01 X0.8688 Y0.4926
G01 X0.8748 Y0.4867
G01 X0.8785 Y0.4843
G01 X0.8841 Y0.4827
G01 X0.8894 Y0.4832
G01 X0.8936 Y0.4849
G01 X0.8979 Y0.4887
G01 X0.9002 Y0.4926
G01 X0.9013 Y0.4969
G01 X0.9013 Y0.5356
G01 X0.9002 Y0.5399
G01 X0.8979 Y0.5438
G01 X0.8923 Y0.5482
G01 X0.8858 Y0.5498
G01 X0.4979 Y0.5498
G01 X0.4906 Y0.5480
G01 X0.4854 Y0.5438
G01 X0.4822 Y0.5365
G01 X0.4827 Y0.5289
G01 X0.4866 Y0.5225
G01 X0.5453 Y0.4640
G01 X0.5518 Y0.4611
G01 X0.5662 Y0.4608
G01 X0.5699 Y0.4593
G01 X0.5727 Y0.4565
G01 X0.5742 Y0.4528
G01 X0.5742 Y0.4267
G01 X0.5732 Y0.4208
G01 X0.5742 Y0.4159
G01 X0.5742 Y0.3897
G01 X0.5732 Y0.3838
G01 X0.5742 Y0.3789
G01 X0.5742 Y0.3528
G01 X0.5727 Y0.3491
G01 X0.5699 Y0.3463
G01 X0.5662 Y0.3448
G01 X0.5522 Y0.3446
G01 X0.5480 Y0.3432
G01 X0.5446 Y0.3410
G01 X0.4877 Y0.2841
G01 X0.4796 Y0.2808
G01 X0.3933 Y0.2808
G01 X0.3889 Y0.2802
G01 X0.3830 Y0.2770
G01 X0.3740 Y0.2677
G01 X0.3714 Y0.2601
G01 X0.3722 Y0.2535
G01 X0.3748 Y0.2488
G01 X0.3781 Y0.2457
G01 X0.3820 Y0.2437
G01 X0.3873 Y0.2428
G01 X0.8854 Y0.2428
G01 X0.8898 Y0.2434
G01 X0.8939 Y0.2453
G01 X0.8985 Y0.2496
G01 X0.9005 Y0.2535
G01 X0.9014 Y0.2584
G01 X0.9013 Y0.3092
G01 X0.9000 Y0.3135
G01 X0.8976 Y0.3172
G01 X0.8943 Y0.3202
G01 X0.8903 Y0.3222
G01 X0.8849 Y0.3229
G01 X0.8793 Y0.3217
G01 X0.8754 Y0.3194
G01 X0.8688 Y0.3130
G01 X0.8516 Y0.3058
G01 X0.8328 Y0.3058
G01 X0.8156 Y0.3130
G01 X0.8007 Y0.3276
G01 X0.7942 Y0.3305
G01 X0.6878 Y0.3308
G01 X0.6797 Y0.3341
G01 X0.6727 Y0.3409
G01 X0.6670 Y0.3434
G01 X0.6416 Y0.3439
G00 Z0.0787
G00 X0.6202 Y0.3548
G01 F3.15
G01 Z-0.0945
G01 F3.15
G01 X0.6414 Y0.3548
G01 X0.6462 Y0.3538
G01 X0.6742 Y0.3538
G01 X0.6850 Y0.3432
G01 X0.6910 Y0.3409
G01 X0.8072 Y0.3408
G01 X0.8125 Y0.3308
G01 X0.8202 Y0.3231
G01 X0.8248 Y0.3202
G01 X0.8315 Y0.3174
G01 X0.8422 Y0.3158
G01 X0.8494 Y0.3165
G01 X0.8564 Y0.3186
G01 X0.8628 Y0.3220
G01 X0.8684 Y0.3266
G01 X0.8730 Y0.3322
G01 X0.8764 Y0.3386
G01 X0.8785 Y0.3456
G01 X0.8792 Y0.3528
G01 X0.8785 Y0.3600
G01 X0.8764 Y0.3670
G01 X0.8730 Y0.3734
G01 X0.8684 Y0.3790
G01 X0.8628 Y0.3836
G01 X0.8564 Y0.3870
G01 X0.8494 Y0.3891
G01 X0.8422 Y0.3898
G01 X0.8315 Y0.3882
G01 X0.8264 Y0.3862
G01 X0.8202 Y0.3825
G01 X0.8125 Y0.3748
G01 X0.8072 Y0.3648
G01 X0.6972 Y0.3648
G01 X0.6868 Y0.3751
G01 X0.6810 Y0.3777
G01 X0.6462 Y0.3778
G01 X0.6414 Y0.3768
G01 X0.6202 Y0.3768
G01 X0.6202 Y0.3548
G00 Z0.0787
G00 X0.8856 Y0.3827
G01 F3.15
G01 Z-0.0945
G01 F3.15
G01 X0.8928 Y0.3845
G01 X0.8985 Y0.3894
G01 X0.9011 Y0.3956
G01 X0.9014 Y0.4069
G01 X0.9000 Y0.4135
G01 X0.8961 Y0.4189
G01 X0.8915 Y0.4217
G01 X0.8849 Y0.4229
G01 X0.8814 Y0.4224
G01 X0.8773 Y0.4207
G01 X0.8700 Y0.4141
G01 X0.8665 Y0.4089
G01 X0.8653 Y0.4023
G01 X0.8671 Y0.3954
G01 X0.8741 Y0.3874
G01 X0.8797 Y0.3837
G01 X0.8856 Y0.3827
G00 Z0.0787
G00 X0.9927 Y0.5976
G01 F3.15
G01 Z-0.0945
G01 F3.15
G01 X0.9979 Y0.5986
G01 X1.0022 Y0.6010
G01 X1.0053 Y0.6043
G01 X1.0078 Y0.6100
G01 X1.0082 Y0.6528
G01 X1.0070 Y0.6589
G01 X1.0032 Y0.6644
G01 X0.9975 Y0.6679
G01 X0.9926 Y0.6688
G01 X0.1922 Y0.6688
G01 X0.1861 Y0.6676
G01 X0.1806 Y0.6638
G01 X0.1771 Y0.6581
G01 X0.1762 Y0.6532
G01 X0.1762 Y0.6150
G01 X0.1768 Y0.6110
G01 X0.1787 Y0.6069
G01 X0.1819 Y0.6032
G01 X0.1874 Y0.6002
G01 X0.1918 Y0.5994
G01 X0.1967 Y0.6001
G01 X0.2025 Y0.6032
G01 X0.2055 Y0.6066
G01 X0.2083 Y0.6125
G01 X0.2195 Y0.6237
G01 X0.2342 Y0.6298
G01 X0.9494 Y0.6298
G01 X0.9641 Y0.6237
G01 X0.9753 Y0.6125
G01 X0.9784 Y0.6054
G01 X0.9815 Y0.6016
G01 X0.9869 Y0.5984
G01 X0.9927 Y0.5976
G00 Z0.0787
G00 X0.9931 Y0.1369
G01 F3.15
G01 Z-0.0945
G01 F3.15
G01 X0.9983 Y0.1380
G01 X1.0022 Y0.1403
G01 X1.0053 Y0.1436
G01 X1.0073 Y0.1475
G01 X1.0082 Y0.1524
G01 X1.0082 Y0.1795
G01 X1.0066 Y0.1860
G01 X1.0029 Y0.1910
G01 X0.9970 Y0.1943
G01 X0.9922 Y0.1951
G01 X0.9861 Y0.1938
G01 X0.9806 Y0.1900
G01 X0.9780 Y0.1864
G01 X0.9753 Y0.1801
G01 X0.9641 Y0.1689
G01 X0.9589 Y0.1666
G01 X0.9551 Y0.1635
G01 X0.9519 Y0.1581
G01 X0.9510 Y0.1532
G01 X0.9516 Y0.1488
G01 X0.9543 Y0.1432
G01 X0.9574 Y0.1400
G01 X0.9614 Y0.1378
G01 X0.9670 Y0.1368
G01 X0.9931 Y0.1369
G00 Z0.0787
M05
G00 Z0.0787
G00 Z0.50
G00 X0.0 Y0.0

M02