(G-CODE GENERATED BY FLATCAM v8.96 - www.flatcam.org - Version Date: 2019/08/23)

(Name: copper_top.gbr_iso_cnc_1)
(Type: G-code from Geometry)
(Units: MM)

(Created on Saturday, 12 October 2019 at 21:05)

(TOOL DIAMETER: 0.01 mm)
(Feedrate: 70.0 mm/min)
(Feedrate_Z: 70.0 mm/min)
(Feedrate rapids 79.9998 mm/min)

(Z_Cut: -0.005 mm)
(Z_Move: 1.0 mm)
(Z Toolchange: 12.7 mm)
(X,Y Toolchange: 0.0000, 0.0000 mm)
(Z Start: None mm)
(Z End: 12.7 mm)
(Steps per circle: 128)
(Postprocessor Geometry: default)

(X range:    1.5952 ...   17.6548  mm)
(Y range:    1.4752 ...   11.0848  mm)

(Spindle Speed: None RPM)

G21
G90
G94

G01 F70.00
G00 Z1.0000

M03
G00 X1.5963 Y2.5662
G01 F70.00
G01 Z-0.0050
G01 F70.00
G01 X1.5952 Y2.5199
G01 X1.5963 Y2.4738
G01 X1.5997 Y2.4275
G01 X1.6054 Y2.3815
G01 X1.6134 Y2.3357
G01 X1.6235 Y2.2903
G01 X1.6358 Y2.2459
G01 X1.6504 Y2.2018
G01 X1.6671 Y2.1585
G01 X1.6860 Y2.1159
G01 X1.7067 Y2.0747
G01 X1.7296 Y2.0344
G01 X1.7544 Y1.9952
G01 X1.7811 Y1.9572
G01 X1.8097 Y1.9205
G01 X1.8399 Y1.8856
G01 X1.8718 Y1.8520
G01 X1.9054 Y1.8200
G01 X1.9407 Y1.7896
G01 X1.9772 Y1.7611
G01 X2.0150 Y1.7345
G01 X2.0544 Y1.7096
G01 X2.0947 Y1.6867
G01 X2.1362 Y1.6659
G01 X2.1785 Y1.6471
G01 X2.2216 Y1.6305
G01 X2.2656 Y1.6159
G01 X2.3106 Y1.6035
G01 X2.3557 Y1.5934
G01 X2.4012 Y1.5854
G01 X2.4475 Y1.5797
G01 X2.4935 Y1.5763
G01 X2.5399 Y1.5752
G01 X2.5862 Y1.5763
G01 X2.6327 Y1.5798
G01 X2.6788 Y1.5854
G01 X2.7243 Y1.5934
G01 X2.7694 Y1.6035
G01 X2.8144 Y1.6159
G01 X2.8584 Y1.6305
G01 X2.9015 Y1.6471
G01 X2.9438 Y1.6659
G01 X2.9853 Y1.6867
G01 X3.0258 Y1.7097
G01 X3.0648 Y1.7344
G01 X3.1027 Y1.7611
G01 X3.1395 Y1.7897
G01 X3.1746 Y1.8200
G01 X3.2082 Y1.8520
G01 X3.2401 Y1.8856
G01 X3.2704 Y1.9207
G01 X3.2989 Y1.9572
G01 X3.3256 Y1.9952
G01 X3.3504 Y2.0344
G01 X3.3733 Y2.0747
G01 X3.3940 Y2.1159
G01 X3.4129 Y2.1585
G01 X3.4295 Y2.2016
G01 X3.4441 Y2.2456
G01 X3.4565 Y2.2903
G01 X3.4666 Y2.3356
G01 X3.4746 Y2.3815
G01 X3.4803 Y2.4275
G01 X3.4837 Y2.4738
G01 X3.4848 Y2.5200
G01 X3.4837 Y2.5662
G01 X3.4802 Y2.6127
G01 X3.4746 Y2.6585
G01 X3.4666 Y2.7043
G01 X3.4565 Y2.7494
G01 X3.4442 Y2.7941
G01 X3.4323 Y2.8302
G01 X4.9155 Y4.3134
G01 X6.0719 Y4.3139
G01 X6.1121 Y4.3179
G01 X6.1517 Y4.3258
G01 X6.1904 Y4.3375
G01 X6.2277 Y4.3530
G01 X6.2633 Y4.3720
G01 X6.2968 Y4.3944
G01 X6.3281 Y4.4201
G01 X6.3426 Y4.4340
G01 X6.3606 Y4.4533
G01 X6.8279 Y4.4536
G01 X6.8304 Y4.4554
G01 X6.8313 Y4.4583
G01 X6.8309 Y4.9937
G01 X6.8290 Y4.9959
G01 X6.8263 Y4.9967
G01 X6.3606 Y4.9967
G01 X6.3426 Y5.0160
G01 X6.3281 Y5.0299
G01 X6.2968 Y5.0556
G01 X6.2633 Y5.0780
G01 X6.2277 Y5.0970
G01 X6.2091 Y5.1053
G01 X6.1901 Y5.1126
G01 X6.1515 Y5.1243
G01 X6.1119 Y5.1322
G01 X6.0717 Y5.1361
G01 X4.7249 Y5.1361
G01 X4.6847 Y5.1322
G01 X4.6451 Y5.1243
G01 X4.6065 Y5.1126
G01 X4.5691 Y5.0971
G01 X4.5509 Y5.0879
G01 X4.5162 Y5.0672
G01 X4.4838 Y5.0431
G01 X4.4540 Y5.0160
G01 X2.8502 Y3.4123
G01 X2.8141 Y3.4242
G01 X2.7697 Y3.4365
G01 X2.7243 Y3.4466
G01 X2.6785 Y3.4546
G01 X2.6327 Y3.4602
G01 X2.5865 Y3.4637
G01 X2.5400 Y3.4648
G01 X2.4935 Y3.4637
G01 X2.4473 Y3.4602
G01 X2.4015 Y3.4546
G01 X2.3558 Y3.4467
G01 X2.3106 Y3.4365
G01 X2.2656 Y3.4241
G01 X2.2218 Y3.4096
G01 X2.1786 Y3.3929
G01 X2.1359 Y3.3740
G01 X2.0945 Y3.3532
G01 X2.0542 Y3.3303
G01 X2.0152 Y3.3056
G01 X1.9772 Y3.2789
G01 X1.9406 Y3.2503
G01 X1.9054 Y3.2200
G01 X1.8719 Y3.1881
G01 X1.8399 Y3.1544
G01 X1.8096 Y3.1193
G01 X1.7811 Y3.0827
G01 X1.7545 Y3.0450
G01 X1.7297 Y3.0058
G01 X1.7068 Y2.9655
G01 X1.6860 Y2.9241
G01 X1.6671 Y2.8815
G01 X1.6505 Y2.8384
G01 X1.6359 Y2.7944
G01 X1.6235 Y2.7494
G01 X1.6134 Y2.7043
G01 X1.6054 Y2.6585
G01 X1.5997 Y2.6125
G01 X1.5963 Y2.5662
G00 Z1.0000
G00 X1.5963 Y5.1062
G01 F70.00
G01 Z-0.0050
G01 F70.00
G01 X1.5952 Y5.0600
G01 X1.5963 Y5.0135
G01 X1.5998 Y4.9673
G01 X1.6054 Y4.9215
G01 X1.6133 Y4.8758
G01 X1.6235 Y4.8306
G01 X1.6358 Y4.7859
G01 X1.6504 Y4.7418
G01 X1.6672 Y4.6983
G01 X1.6860 Y4.6559
G01 X1.7067 Y4.6147
G01 X1.7296 Y4.5744
G01 X1.7544 Y4.5352
G01 X1.7811 Y4.4972
G01 X1.8097 Y4.4606
G01 X1.8400 Y4.4254
G01 X1.8720 Y4.3918
G01 X1.9054 Y4.3600
G01 X1.9405 Y4.3297
G01 X1.9772 Y4.3011
G01 X2.0152 Y4.2744
G01 X2.0544 Y4.2496
G01 X2.0945 Y4.2268
G01 X2.1359 Y4.2060
G01 X2.1785 Y4.1871
G01 X2.2216 Y4.1705
G01 X2.2656 Y4.1559
G01 X2.3106 Y4.1435
G01 X2.3557 Y4.1334
G01 X2.4015 Y4.1254
G01 X2.4475 Y4.1197
G01 X2.4935 Y4.1163
G01 X2.5399 Y4.1152
G01 X2.5862 Y4.1163
G01 X2.6327 Y4.1198
G01 X2.6788 Y4.1254
G01 X2.7244 Y4.1334
G01 X2.7697 Y4.1435
G01 X2.8144 Y4.1559
G01 X2.8584 Y4.1705
G01 X2.9015 Y4.1871
G01 X2.9441 Y4.2060
G01 X2.9855 Y4.2268
G01 X3.0258 Y4.2497
G01 X3.0650 Y4.2745
G01 X3.1028 Y4.3011
G01 X3.1394 Y4.3297
G01 X3.1746 Y4.3600
G01 X3.2081 Y4.3919
G01 X3.2401 Y4.4256
G01 X3.2704 Y4.4607
G01 X3.2989 Y4.4972
G01 X3.3256 Y4.5352
G01 X3.3504 Y4.5744
G01 X3.3732 Y4.6145
G01 X3.3940 Y4.6559
G01 X3.4129 Y4.6985
G01 X3.4295 Y4.7416
G01 X3.4441 Y4.7856
G01 X3.4565 Y4.8306
G01 X3.4666 Y4.8757
G01 X3.4746 Y4.9215
G01 X3.4803 Y4.9675
G01 X3.4837 Y5.0135
G01 X3.4848 Y5.0599
G01 X3.4837 Y5.1062
G01 X3.4803 Y5.1525
G01 X3.4746 Y5.1985
G01 X3.4666 Y5.2444
G01 X3.4565 Y5.2897
G01 X3.4442 Y5.3341
G01 X3.4323 Y5.3702
G01 X3.6455 Y5.5834
G01 X6.0717 Y5.5839
G01 X6.1119 Y5.5878
G01 X6.1515 Y5.5957
G01 X6.1901 Y5.6074
G01 X6.2091 Y5.6147
G01 X6.2277 Y5.6230
G01 X6.2633 Y5.6420
G01 X6.2968 Y5.6644
G01 X6.3281 Y5.6901
G01 X6.3426 Y5.7040
G01 X6.3606 Y5.7233
G01 X6.8275 Y5.7234
G01 X6.8302 Y5.7252
G01 X6.8313 Y5.7283
G01 X6.8312 Y6.2629
G01 X6.8294 Y6.2656
G01 X6.8263 Y6.2667
G01 X6.3606 Y6.2667
G01 X6.3426 Y6.2860
G01 X6.3281 Y6.2999
G01 X6.2968 Y6.3256
G01 X6.2633 Y6.3480
G01 X6.2277 Y6.3670
G01 X6.2091 Y6.3753
G01 X6.1901 Y6.3826
G01 X6.1515 Y6.3943
G01 X6.1119 Y6.4022
G01 X6.0717 Y6.4061
G01 X3.4750 Y6.4066
G01 X3.4346 Y6.4046
G01 X3.3946 Y6.3987
G01 X3.3749 Y6.3942
G01 X3.3365 Y6.3826
G01 X3.3175 Y6.3753
G01 X3.2989 Y6.3670
G01 X3.2809 Y6.3579
G01 X3.2464 Y6.3373
G01 X3.2298 Y6.3256
G01 X3.2138 Y6.3131
G01 X3.1840 Y6.2860
G01 X2.8502 Y5.9523
G01 X2.8141 Y5.9642
G01 X2.7697 Y5.9765
G01 X2.7244 Y5.9866
G01 X2.6788 Y5.9946
G01 X2.6325 Y6.0003
G01 X2.5865 Y6.0037
G01 X2.5401 Y6.0048
G01 X2.4938 Y6.0037
G01 X2.4473 Y6.0002
G01 X2.4012 Y5.9946
G01 X2.3557 Y5.9866
G01 X2.3106 Y5.9765
G01 X2.2659 Y5.9642
G01 X2.2218 Y5.9496
G01 X2.1785 Y5.9329
G01 X2.1359 Y5.9140
G01 X2.0945 Y5.8932
G01 X2.0542 Y5.8703
G01 X2.0152 Y5.8456
G01 X1.9773 Y5.8189
G01 X1.9406 Y5.7903
G01 X1.9054 Y5.7600
G01 X1.8718 Y5.7280
G01 X1.8400 Y5.6946
G01 X1.8097 Y5.6595
G01 X1.7811 Y5.6228
G01 X1.7545 Y5.5850
G01 X1.7296 Y5.5456
G01 X1.7067 Y5.5053
G01 X1.6860 Y5.4641
G01 X1.6671 Y5.4214
G01 X1.6504 Y5.3782
G01 X1.6359 Y5.3344
G01 X1.6235 Y5.2897
G01 X1.6134 Y5.2443
G01 X1.6054 Y5.1985
G01 X1.5997 Y5.1525
G01 X1.5963 Y5.1062
G00 Z1.0000
G00 X1.5963 Y7.6462
G01 F70.00
G01 Z-0.0050
G01 F70.00
G01 X1.5952 Y7.6000
G01 X1.5963 Y7.5538
G01 X1.5998 Y7.5073
G01 X1.6054 Y7.4615
G01 X1.6134 Y7.4157
G01 X1.6235 Y7.3706
G01 X1.6358 Y7.3259
G01 X1.6504 Y7.2818
G01 X1.6671 Y7.2385
G01 X1.6859 Y7.1962
G01 X1.7068 Y7.1545
G01 X1.7297 Y7.1142
G01 X1.7545 Y7.0750
G01 X1.7811 Y7.0372
G01 X1.8097 Y7.0006
G01 X1.8400 Y6.9654
G01 X1.8719 Y6.9319
G01 X1.9054 Y6.9000
G01 X1.9405 Y6.8697
G01 X1.9772 Y6.8411
G01 X2.0150 Y6.8145
G01 X2.0542 Y6.7897
G01 X2.0945 Y6.7668
G01 X2.1362 Y6.7459
G01 X2.1785 Y6.7271
G01 X2.2218 Y6.7104
G01 X2.2659 Y6.6958
G01 X2.3106 Y6.6835
G01 X2.3557 Y6.6734
G01 X2.4015 Y6.6654
G01 X2.4475 Y6.6597
G01 X2.4938 Y6.6563
G01 X2.5400 Y6.6552
G01 X2.5865 Y6.6563
G01 X2.6327 Y6.6598
G01 X2.6788 Y6.6654
G01 X2.7243 Y6.6734
G01 X2.7697 Y6.6835
G01 X2.8144 Y6.6959
G01 X2.8584 Y6.7105
G01 X2.9015 Y6.7271
G01 X2.9441 Y6.7460
G01 X2.9855 Y6.7668
G01 X3.0258 Y6.7897
G01 X3.0650 Y6.8145
G01 X3.1027 Y6.8411
G01 X3.1185 Y6.8534
G01 X6.0717 Y6.8539
G01 X6.1119 Y6.8578
G01 X6.1515 Y6.8657
G01 X6.1901 Y6.8774
G01 X6.2091 Y6.8847
G01 X6.2277 Y6.8930
G01 X6.2633 Y6.9120
G01 X6.2968 Y6.9344
G01 X6.3281 Y6.9601
G01 X6.3426 Y6.9740
G01 X6.3606 Y6.9933
G01 X6.8263 Y6.9933
G01 X6.8296 Y6.9945
G01 X6.8313 Y6.9976
G01 X6.8313 Y7.5317
G01 X6.8301 Y7.5350
G01 X6.8272 Y7.5366
G01 X6.3606 Y7.5367
G01 X6.3426 Y7.5560
G01 X6.3281 Y7.5699
G01 X6.2968 Y7.5956
G01 X6.2633 Y7.6180
G01 X6.2277 Y7.6370
G01 X6.2091 Y7.6453
G01 X6.1901 Y7.6526
G01 X6.1515 Y7.6643
G01 X6.1119 Y7.6722
G01 X6.0717 Y7.6761
G01 X3.4814 Y7.6766
G01 X3.4802 Y7.6927
G01 X3.4746 Y7.7388
G01 X3.4666 Y7.7843
G01 X3.4565 Y7.8294
G01 X3.4442 Y7.8741
G01 X3.4296 Y7.9182
G01 X3.4128 Y7.9617
G01 X3.3940 Y8.0041
G01 X3.3732 Y8.0455
G01 X3.3503 Y8.0858
G01 X3.3256 Y8.1248
G01 X3.2989 Y8.1628
G01 X3.2704 Y8.1993
G01 X3.2400 Y8.2346
G01 X3.2081 Y8.2681
G01 X3.1746 Y8.3000
G01 X3.1395 Y8.3303
G01 X3.1029 Y8.3588
G01 X3.0650 Y8.3855
G01 X3.0258 Y8.4103
G01 X2.9853 Y8.4333
G01 X2.9441 Y8.4540
G01 X2.9015 Y8.4729
G01 X2.8584 Y8.4895
G01 X2.8144 Y8.5041
G01 X2.7694 Y8.5165
G01 X2.7243 Y8.5266
G01 X2.6785 Y8.5346
G01 X2.6325 Y8.5403
G01 X2.5865 Y8.5437
G01 X2.5401 Y8.5448
G01 X2.4938 Y8.5437
G01 X2.4475 Y8.5403
G01 X2.4015 Y8.5346
G01 X2.3557 Y8.5266
G01 X2.3106 Y8.5165
G01 X2.2659 Y8.5042
G01 X2.2218 Y8.4896
G01 X2.1785 Y8.4729
G01 X2.1359 Y8.4540
G01 X2.0947 Y8.4333
G01 X2.0542 Y8.4103
G01 X2.0152 Y8.3856
G01 X1.9772 Y8.3589
G01 X1.9406 Y8.3303
G01 X1.9054 Y8.3000
G01 X1.8719 Y8.2681
G01 X1.8399 Y8.2344
G01 X1.8096 Y8.1993
G01 X1.7811 Y8.1627
G01 X1.7545 Y8.1250
G01 X1.7297 Y8.0858
G01 X1.7068 Y8.0455
G01 X1.6860 Y8.0041
G01 X1.6671 Y7.9615
G01 X1.6505 Y7.9184
G01 X1.6359 Y7.8744
G01 X1.6235 Y7.8294
G01 X1.6134 Y7.7843
G01 X1.6054 Y7.7385
G01 X1.5997 Y7.6925
G01 X1.5963 Y7.6462
G00 Z1.0000
G00 X1.5963 Y10.1862
G01 F70.00
G01 Z-0.0050
G01 F70.00
G01 X1.5952 Y10.1400
G01 X1.5963 Y10.0938
G01 X1.5998 Y10.0473
G01 X1.6054 Y10.0015
G01 X1.6133 Y9.9558
G01 X1.6235 Y9.9103
G01 X1.6358 Y9.8659
G01 X1.6504 Y9.8218
G01 X1.6671 Y9.7785
G01 X1.6859 Y9.7362
G01 X1.7068 Y9.6945
G01 X1.7297 Y9.6542
G01 X1.7544 Y9.6152
G01 X1.7812 Y9.5771
G01 X1.8097 Y9.5406
G01 X1.8399 Y9.5056
G01 X1.8720 Y9.4718
G01 X1.9056 Y9.4399
G01 X1.9407 Y9.4096
G01 X1.9772 Y9.3811
G01 X2.0150 Y9.3545
G01 X2.0544 Y9.3296
G01 X2.0947 Y9.3067
G01 X2.1359 Y9.2860
G01 X2.1785 Y9.2671
G01 X2.2216 Y9.2505
G01 X2.2656 Y9.2359
G01 X2.3103 Y9.2235
G01 X2.3557 Y9.2134
G01 X2.4012 Y9.2054
G01 X2.4475 Y9.1997
G01 X2.4938 Y9.1963
G01 X2.5401 Y9.1952
G01 X2.5865 Y9.1963
G01 X2.6327 Y9.1998
G01 X2.6788 Y9.2054
G01 X2.7243 Y9.2134
G01 X2.7694 Y9.2235
G01 X2.8141 Y9.2358
G01 X2.8582 Y9.2504
G01 X2.9015 Y9.2671
G01 X2.9441 Y9.2860
G01 X2.9853 Y9.3067
G01 X3.0258 Y9.3297
G01 X3.0648 Y9.3544
G01 X3.1028 Y9.3811
G01 X3.1393 Y9.4096
G01 X3.1746 Y9.4400
G01 X3.2081 Y9.4719
G01 X3.2401 Y9.5056
G01 X3.2704 Y9.5407
G01 X3.2989 Y9.5772
G01 X3.3255 Y9.6150
G01 X3.3503 Y9.6542
G01 X3.3732 Y9.6945
G01 X3.3902 Y9.7284
G01 X4.2761 Y9.7284
G01 X5.2719 Y8.7326
G01 X5.2719 Y8.2683
G01 X5.2726 Y8.2658
G01 X5.2744 Y8.2640
G01 X5.2769 Y8.2633
G01 X5.7412 Y8.2633
G01 X5.7753 Y8.2299
G01 X5.8064 Y8.2044
G01 X5.8401 Y8.1819
G01 X5.8757 Y8.1629
G01 X5.9131 Y8.1474
G01 X5.9515 Y8.1358
G01 X5.9712 Y8.1313
G01 X6.0111 Y8.1254
G01 X6.0516 Y8.1234
G01 X6.0920 Y8.1254
G01 X6.1320 Y8.1313
G01 X6.1517 Y8.1358
G01 X6.1901 Y8.1474
G01 X6.2275 Y8.1629
G01 X6.2455 Y8.1719
G01 X6.2633 Y8.1820
G01 X6.2968 Y8.2044
G01 X6.3281 Y8.2301
G01 X6.3426 Y8.2440
G01 X6.3606 Y8.2633
G01 X6.8263 Y8.2633
G01 X6.8292 Y8.2642
G01 X6.8310 Y8.2665
G01 X6.8313 Y8.8017
G01 X6.8299 Y8.8051
G01 X6.8263 Y8.8067
G01 X6.3606 Y8.8067
G01 X6.3426 Y8.8260
G01 X4.7376 Y10.4311
G01 X4.7078 Y10.4581
G01 X4.6919 Y10.4705
G01 X4.6583 Y10.4930
G01 X4.6227 Y10.5120
G01 X4.5854 Y10.5275
G01 X4.5467 Y10.5392
G01 X4.5268 Y10.5437
G01 X4.4868 Y10.5496
G01 X4.4467 Y10.5516
G01 X3.3902 Y10.5516
G01 X3.3732 Y10.5855
G01 X3.3503 Y10.6258
G01 X3.3256 Y10.6648
G01 X3.2989 Y10.7027
G01 X3.2703 Y10.7395
G01 X3.2401 Y10.7744
G01 X3.2082 Y10.8080
G01 X3.1744 Y10.8401
G01 X3.1393 Y10.8704
G01 X3.1028 Y10.8989
G01 X3.0648 Y10.9256
G01 X3.0258 Y10.9503
G01 X2.9855 Y10.9732
G01 X2.9438 Y10.9941
G01 X2.9015 Y11.0129
G01 X2.8584 Y11.0295
G01 X2.8141 Y11.0442
G01 X2.7694 Y11.0565
G01 X2.7243 Y11.0666
G01 X2.6788 Y11.0746
G01 X2.6327 Y11.0802
G01 X2.5862 Y11.0837
G01 X2.5400 Y11.0848
G01 X2.4938 Y11.0837
G01 X2.4473 Y11.0802
G01 X2.4012 Y11.0746
G01 X2.3557 Y11.0666
G01 X2.3106 Y11.0565
G01 X2.2659 Y11.0442
G01 X2.2218 Y11.0296
G01 X2.1786 Y11.0129
G01 X2.1359 Y10.9940
G01 X2.0945 Y10.9732
G01 X2.0542 Y10.9503
G01 X2.0150 Y10.9255
G01 X1.9772 Y10.8989
G01 X1.9406 Y10.8703
G01 X1.9056 Y10.8401
G01 X1.8719 Y10.8081
G01 X1.8400 Y10.7746
G01 X1.8097 Y10.7395
G01 X1.7812 Y10.7029
G01 X1.7544 Y10.6648
G01 X1.7296 Y10.6256
G01 X1.7067 Y10.5853
G01 X1.6860 Y10.5441
G01 X1.6671 Y10.5015
G01 X1.6505 Y10.4584
G01 X1.6359 Y10.4144
G01 X1.6235 Y10.3697
G01 X1.6134 Y10.3244
G01 X1.6054 Y10.2788
G01 X1.5998 Y10.2327
G01 X1.5963 Y10.1862
G00 Z1.0000
G00 X12.6937 Y8.2633
G01 F70.00
G01 Z-0.0050
G01 F70.00
G01 X13.1594 Y8.2633
G01 X13.1774 Y8.2440
G01 X13.1919 Y8.2301
G01 X13.2232 Y8.2044
G01 X13.2569 Y8.1819
G01 X13.2925 Y8.1629
G01 X13.3299 Y8.1474
G01 X13.3683 Y8.1358
G01 X13.3880 Y8.1313
G01 X13.4279 Y8.1254
G01 X13.4684 Y8.1234
G01 X13.5088 Y8.1254
G01 X13.5488 Y8.1313
G01 X13.5685 Y8.1358
G01 X13.6069 Y8.1474
G01 X13.6443 Y8.1629
G01 X13.6623 Y8.1719
G01 X13.6801 Y8.1820
G01 X13.7136 Y8.2044
G01 X13.7447 Y8.2299
G01 X13.7788 Y8.2633
G01 X14.2431 Y8.2633
G01 X14.2456 Y8.2640
G01 X14.2474 Y8.2658
G01 X14.2481 Y8.2683
G01 X14.2481 Y8.7326
G01 X15.1439 Y9.6284
G01 X15.8598 Y9.6284
G01 X15.8768 Y9.5945
G01 X15.8996 Y9.5544
G01 X15.9244 Y9.5152
G01 X15.9511 Y9.4772
G01 X15.9796 Y9.4407
G01 X16.0099 Y9.4056
G01 X16.0419 Y9.3719
G01 X16.0756 Y9.3399
G01 X16.1107 Y9.3096
G01 X16.1473 Y9.2811
G01 X16.1850 Y9.2545
G01 X16.2242 Y9.2297
G01 X16.2645 Y9.2068
G01 X16.3059 Y9.1860
G01 X16.3485 Y9.1671
G01 X16.3916 Y9.1505
G01 X16.4356 Y9.1359
G01 X16.4806 Y9.1235
G01 X16.5257 Y9.1134
G01 X16.5712 Y9.1054
G01 X16.6175 Y9.0997
G01 X16.6638 Y9.0963
G01 X16.7100 Y9.0952
G01 X16.7562 Y9.0963
G01 X16.8025 Y9.0997
G01 X16.8488 Y9.1054
G01 X16.8943 Y9.1134
G01 X16.9394 Y9.1235
G01 X16.9841 Y9.1358
G01 X17.0282 Y9.1504
G01 X17.0717 Y9.1672
G01 X17.1141 Y9.1860
G01 X17.1555 Y9.2068
G01 X17.1958 Y9.2297
G01 X17.2350 Y9.2545
G01 X17.2728 Y9.2811
G01 X17.3094 Y9.3097
G01 X17.3446 Y9.3400
G01 X17.3781 Y9.3719
G01 X17.4101 Y9.4056
G01 X17.4404 Y9.4407
G01 X17.4689 Y9.4772
G01 X17.4956 Y9.5152
G01 X17.5204 Y9.5544
G01 X17.5433 Y9.5947
G01 X17.5640 Y9.6359
G01 X17.5829 Y9.6785
G01 X17.5996 Y9.7218
G01 X17.6142 Y9.7659
G01 X17.6265 Y9.8106
G01 X17.6366 Y9.8557
G01 X17.6446 Y9.9012
G01 X17.6502 Y9.9473
G01 X17.6537 Y9.9935
G01 X17.6548 Y10.0400
G01 X17.6537 Y10.0865
G01 X17.6502 Y10.1327
G01 X17.6446 Y10.1788
G01 X17.6366 Y10.2243
G01 X17.6265 Y10.2697
G01 X17.6141 Y10.3144
G01 X17.5995 Y10.3584
G01 X17.5828 Y10.4017
G01 X17.5640 Y10.4441
G01 X17.5433 Y10.4853
G01 X17.5203 Y10.5258
G01 X17.4956 Y10.5648
G01 X17.4689 Y10.6027
G01 X17.4403 Y10.6394
G01 X17.4101 Y10.6744
G01 X17.3782 Y10.7080
G01 X17.3444 Y10.7401
G01 X17.3095 Y10.7703
G01 X17.2729 Y10.7988
G01 X17.2348 Y10.8256
G01 X17.1958 Y10.8503
G01 X17.1555 Y10.8732
G01 X17.1141 Y10.8940
G01 X17.0715 Y10.9129
G01 X17.0284 Y10.9295
G01 X16.9841 Y10.9442
G01 X16.9397 Y10.9565
G01 X16.8944 Y10.9666
G01 X16.8485 Y10.9746
G01 X16.8027 Y10.9802
G01 X16.7565 Y10.9837
G01 X16.7100 Y10.9848
G01 X16.6635 Y10.9837
G01 X16.6173 Y10.9802
G01 X16.5715 Y10.9746
G01 X16.5256 Y10.9666
G01 X16.4806 Y10.9565
G01 X16.4359 Y10.9442
G01 X16.3918 Y10.9296
G01 X16.3483 Y10.9128
G01 X16.3059 Y10.8940
G01 X16.2647 Y10.8733
G01 X16.2242 Y10.8503
G01 X16.1852 Y10.8256
G01 X16.1473 Y10.7989
G01 X16.1106 Y10.7703
G01 X16.0754 Y10.7400
G01 X16.0419 Y10.7081
G01 X16.0100 Y10.6746
G01 X15.9796 Y10.6393
G01 X15.9511 Y10.6028
G01 X15.9245 Y10.5650
G01 X15.8996 Y10.5256
G01 X15.8768 Y10.4855
G01 X15.8598 Y10.4516
G01 X14.9533 Y10.4511
G01 X14.9131 Y10.4472
G01 X14.8735 Y10.4393
G01 X14.8349 Y10.4276
G01 X14.8158 Y10.4202
G01 X14.7793 Y10.4029
G01 X14.7446 Y10.3822
G01 X14.7122 Y10.3581
G01 X14.6824 Y10.3311
G01 X13.1774 Y8.8260
G01 X13.1594 Y8.8067
G01 X12.6937 Y8.8067
G01 X12.6901 Y8.8051
G01 X12.6887 Y8.8017
G01 X12.6887 Y8.2683
G01 X12.6901 Y8.2649
G01 X12.6937 Y8.2633
G00 Z1.0000
G00 X12.6937 Y6.9933
G01 F70.00
G01 Z-0.0050
G01 F70.00
G01 X13.1594 Y6.9933
G01 X13.1774 Y6.9740
G01 X13.1919 Y6.9601
G01 X13.2232 Y6.9344
G01 X13.2567 Y6.9120
G01 X13.2923 Y6.8930
G01 X13.3109 Y6.8847
G01 X13.3299 Y6.8774
G01 X13.3685 Y6.8657
G01 X13.4081 Y6.8578
G01 X13.4483 Y6.8539
G01 X16.0215 Y6.8534
G01 X16.0419 Y6.8319
G01 X16.0754 Y6.8000
G01 X16.1105 Y6.7697
G01 X16.1472 Y6.7411
G01 X16.1852 Y6.7144
G01 X16.2244 Y6.6896
G01 X16.2645 Y6.6668
G01 X16.3059 Y6.6460
G01 X16.3485 Y6.6271
G01 X16.3918 Y6.6104
G01 X16.4359 Y6.5958
G01 X16.4806 Y6.5835
G01 X16.5257 Y6.5734
G01 X16.5712 Y6.5654
G01 X16.6173 Y6.5598
G01 X16.6635 Y6.5563
G01 X16.7101 Y6.5552
G01 X16.7562 Y6.5563
G01 X16.8025 Y6.5597
G01 X16.8485 Y6.5654
G01 X16.8943 Y6.5734
G01 X16.9394 Y6.5835
G01 X16.9841 Y6.5958
G01 X17.0282 Y6.6104
G01 X17.0715 Y6.6271
G01 X17.1141 Y6.6460
G01 X17.1555 Y6.6668
G01 X17.1958 Y6.6897
G01 X17.2350 Y6.7145
G01 X17.2728 Y6.7411
G01 X17.3094 Y6.7697
G01 X17.3446 Y6.8000
G01 X17.3781 Y6.8319
G01 X17.4101 Y6.8656
G01 X17.4404 Y6.9007
G01 X17.4689 Y6.9372
G01 X17.4955 Y6.9750
G01 X17.5203 Y7.0142
G01 X17.5432 Y7.0545
G01 X17.5640 Y7.0959
G01 X17.5829 Y7.1385
G01 X17.5995 Y7.1816
G01 X17.6141 Y7.2256
G01 X17.6265 Y7.2703
G01 X17.6366 Y7.3157
G01 X17.6446 Y7.3612
G01 X17.6502 Y7.4073
G01 X17.6537 Y7.4535
G01 X17.6548 Y7.5000
G01 X17.6537 Y7.5462
G01 X17.6502 Y7.5927
G01 X17.6446 Y7.6385
G01 X17.6366 Y7.6843
G01 X17.6265 Y7.7294
G01 X17.6142 Y7.7741
G01 X17.5996 Y7.8182
G01 X17.5829 Y7.8615
G01 X17.5640 Y7.9041
G01 X17.5432 Y7.9455
G01 X17.5203 Y7.9858
G01 X17.4955 Y8.0250
G01 X17.4689 Y8.0628
G01 X17.4403 Y8.0994
G01 X17.4100 Y8.1346
G01 X17.3781 Y8.1681
G01 X17.3444 Y8.2001
G01 X17.3093 Y8.2304
G01 X17.2728 Y8.2589
G01 X17.2350 Y8.2855
G01 X17.1958 Y8.3103
G01 X17.1555 Y8.3332
G01 X17.1141 Y8.3540
G01 X17.0715 Y8.3729
G01 X17.0284 Y8.3895
G01 X16.9844 Y8.4041
G01 X16.9397 Y8.4165
G01 X16.8943 Y8.4266
G01 X16.8488 Y8.4346
G01 X16.8027 Y8.4402
G01 X16.7565 Y8.4437
G01 X16.7100 Y8.4448
G01 X16.6638 Y8.4437
G01 X16.6173 Y8.4402
G01 X16.5715 Y8.4346
G01 X16.5257 Y8.4266
G01 X16.4806 Y8.4165
G01 X16.4356 Y8.4041
G01 X16.3918 Y8.3896
G01 X16.3486 Y8.3729
G01 X16.3059 Y8.3540
G01 X16.2645 Y8.3332
G01 X16.2242 Y8.3103
G01 X16.1852 Y8.2856
G01 X16.1473 Y8.2589
G01 X16.1105 Y8.2303
G01 X16.0756 Y8.2001
G01 X16.0420 Y8.1682
G01 X16.0099 Y8.1344
G01 X15.9796 Y8.0993
G01 X15.9511 Y8.0628
G01 X15.9245 Y8.0250
G01 X15.8997 Y7.9858
G01 X15.8767 Y7.9453
G01 X15.8560 Y7.9041
G01 X15.8372 Y7.8617
G01 X15.8204 Y7.8182
G01 X15.8059 Y7.7744
G01 X15.7935 Y7.7297
G01 X15.7820 Y7.6766
G01 X13.4483 Y7.6761
G01 X13.4081 Y7.6722
G01 X13.3685 Y7.6643
G01 X13.3299 Y7.6526
G01 X13.3109 Y7.6453
G01 X13.2923 Y7.6370
G01 X13.2567 Y7.6180
G01 X13.2232 Y7.5956
G01 X13.1919 Y7.5699
G01 X13.1774 Y7.5560
G01 X13.1594 Y7.5367
G01 X12.6919 Y7.5364
G01 X12.6896 Y7.5346
G01 X12.6887 Y7.5317
G01 X12.6887 Y6.9983
G01 X12.6901 Y6.9949
G01 X12.6937 Y6.9933
G00 Z1.0000
G00 X12.6937 Y5.7233
G01 F70.00
G01 Z-0.0050
G01 F70.00
G01 X13.1594 Y5.7233
G01 X13.1774 Y5.7040
G01 X13.1919 Y5.6901
G01 X13.2232 Y5.6644
G01 X13.2567 Y5.6420
G01 X13.2923 Y5.6230
G01 X13.3296 Y5.6075
G01 X13.3683 Y5.5958
G01 X13.4079 Y5.5879
G01 X13.4481 Y5.5839
G01 X15.5045 Y5.5834
G01 X15.8177 Y5.2702
G01 X15.8058 Y5.2341
G01 X15.7935 Y5.1897
G01 X15.7834 Y5.1444
G01 X15.7754 Y5.0988
G01 X15.7697 Y5.0525
G01 X15.7663 Y5.0062
G01 X15.7652 Y4.9599
G01 X15.7663 Y4.9138
G01 X15.7697 Y4.8675
G01 X15.7754 Y4.8215
G01 X15.7834 Y4.7757
G01 X15.7935 Y4.7306
G01 X15.8059 Y4.6856
G01 X15.8205 Y4.6416
G01 X15.8371 Y4.5985
G01 X15.8560 Y4.5559
G01 X15.8767 Y4.5147
G01 X15.8996 Y4.4744
G01 X15.9244 Y4.4352
G01 X15.9511 Y4.3972
G01 X15.9797 Y4.3606
G01 X16.0100 Y4.3254
G01 X16.0419 Y4.2919
G01 X16.0754 Y4.2600
G01 X16.1105 Y4.2297
G01 X16.1472 Y4.2011
G01 X16.1850 Y4.1745
G01 X16.2242 Y4.1497
G01 X16.2645 Y4.1268
G01 X16.3059 Y4.1060
G01 X16.3485 Y4.0871
G01 X16.3918 Y4.0704
G01 X16.4359 Y4.0558
G01 X16.4806 Y4.0435
G01 X16.5257 Y4.0334
G01 X16.5712 Y4.0254
G01 X16.6173 Y4.0198
G01 X16.6635 Y4.0163
G01 X16.7100 Y4.0152
G01 X16.7565 Y4.0163
G01 X16.8027 Y4.0198
G01 X16.8488 Y4.0254
G01 X16.8943 Y4.0334
G01 X16.9394 Y4.0435
G01 X16.9841 Y4.0558
G01 X17.0282 Y4.0704
G01 X17.0715 Y4.0871
G01 X17.1141 Y4.1060
G01 X17.1553 Y4.1267
G01 X17.1958 Y4.1497
G01 X17.2348 Y4.1744
G01 X17.2728 Y4.2011
G01 X17.3094 Y4.2297
G01 X17.3446 Y4.2600
G01 X17.3781 Y4.2919
G01 X17.4100 Y4.3254
G01 X17.4403 Y4.3605
G01 X17.4689 Y4.3972
G01 X17.4955 Y4.4350
G01 X17.5203 Y4.4742
G01 X17.5432 Y4.5145
G01 X17.5640 Y4.5559
G01 X17.5829 Y4.5985
G01 X17.5996 Y4.6418
G01 X17.6142 Y4.6859
G01 X17.6265 Y4.7306
G01 X17.6366 Y4.7757
G01 X17.6446 Y4.8215
G01 X17.6502 Y4.8673
G01 X17.6537 Y4.9135
G01 X17.6548 Y4.9600
G01 X17.6537 Y5.0065
G01 X17.6502 Y5.0527
G01 X17.6446 Y5.0985
G01 X17.6366 Y5.1443
G01 X17.6265 Y5.1897
G01 X17.6142 Y5.2341
G01 X17.5996 Y5.2782
G01 X17.5829 Y5.3215
G01 X17.5640 Y5.3641
G01 X17.5433 Y5.4053
G01 X17.5204 Y5.4456
G01 X17.4955 Y5.4850
G01 X17.4689 Y5.5228
G01 X17.4404 Y5.5593
G01 X17.4101 Y5.5944
G01 X17.3781 Y5.6281
G01 X17.3444 Y5.6601
G01 X17.3093 Y5.6904
G01 X17.2728 Y5.7189
G01 X17.2350 Y5.7455
G01 X17.1956 Y5.7704
G01 X17.1555 Y5.7932
G01 X17.1141 Y5.8140
G01 X17.0715 Y5.8329
G01 X17.0282 Y5.8496
G01 X16.9844 Y5.8641
G01 X16.9397 Y5.8765
G01 X16.8943 Y5.8866
G01 X16.8485 Y5.8946
G01 X16.8027 Y5.9002
G01 X16.7565 Y5.9037
G01 X16.7100 Y5.9048
G01 X16.6635 Y5.9037
G01 X16.6173 Y5.9002
G01 X16.5715 Y5.8946
G01 X16.5257 Y5.8866
G01 X16.4803 Y5.8765
G01 X16.4359 Y5.8642
G01 X16.3998 Y5.8523
G01 X15.9660 Y6.2860
G01 X15.9362 Y6.3131
G01 X15.9202 Y6.3256
G01 X15.9036 Y6.3373
G01 X15.8691 Y6.3579
G01 X15.8511 Y6.3670
G01 X15.8325 Y6.3753
G01 X15.8135 Y6.3826
G01 X15.7751 Y6.3942
G01 X15.7553 Y6.3987
G01 X15.7155 Y6.4046
G01 X15.6750 Y6.4066
G01 X13.4483 Y6.4061
G01 X13.4081 Y6.4022
G01 X13.3685 Y6.3943
G01 X13.3299 Y6.3826
G01 X13.3109 Y6.3753
G01 X13.2923 Y6.3670
G01 X13.2567 Y6.3480
G01 X13.2232 Y6.3256
G01 X13.1919 Y6.2999
G01 X13.1774 Y6.2860
G01 X13.1594 Y6.2667
G01 X12.6925 Y6.2666
G01 X12.6898 Y6.2648
G01 X12.6887 Y6.2617
G01 X12.6887 Y5.7283
G01 X12.6901 Y5.7249
G01 X12.6937 Y5.7233
G00 Z1.0000
G00 X12.6937 Y4.4533
G01 F70.00
G01 Z-0.0050
G01 F70.00
G01 X13.1594 Y4.4533
G01 X13.1774 Y4.4339
G01 X13.2074 Y4.4067
G01 X13.2398 Y4.3827
G01 X13.2745 Y4.3619
G01 X13.3109 Y4.3447
G01 X13.3490 Y4.3311
G01 X13.3881 Y4.3213
G01 X13.4282 Y4.3154
G01 X13.4684 Y4.3134
G01 X14.2345 Y4.3134
G01 X15.8177 Y2.7302
G01 X15.8058 Y2.6941
G01 X15.7935 Y2.6494
G01 X15.7834 Y2.6043
G01 X15.7754 Y2.5585
G01 X15.7698 Y2.5127
G01 X15.7663 Y2.4665
G01 X15.7652 Y2.4200
G01 X15.7663 Y2.3738
G01 X15.7698 Y2.3273
G01 X15.7754 Y2.2815
G01 X15.7834 Y2.2356
G01 X15.7935 Y2.1906
G01 X15.8058 Y2.1459
G01 X15.8204 Y2.1018
G01 X15.8371 Y2.0586
G01 X15.8560 Y2.0159
G01 X15.8768 Y1.9745
G01 X15.8997 Y1.9342
G01 X15.9245 Y1.8950
G01 X15.9511 Y1.8572
G01 X15.9797 Y1.8206
G01 X16.0099 Y1.7856
G01 X16.0420 Y1.7518
G01 X16.0756 Y1.7199
G01 X16.1107 Y1.6896
G01 X16.1472 Y1.6611
G01 X16.1852 Y1.6344
G01 X16.2244 Y1.6096
G01 X16.2647 Y1.5867
G01 X16.3059 Y1.5660
G01 X16.3485 Y1.5471
G01 X16.3918 Y1.5304
G01 X16.4359 Y1.5158
G01 X16.4806 Y1.5035
G01 X16.5257 Y1.4934
G01 X16.5715 Y1.4854
G01 X16.6175 Y1.4797
G01 X16.6638 Y1.4763
G01 X16.7100 Y1.4752
G01 X16.7565 Y1.4763
G01 X16.8027 Y1.4798
G01 X16.8488 Y1.4854
G01 X16.8943 Y1.4934
G01 X16.9397 Y1.5035
G01 X16.9844 Y1.5159
G01 X17.0284 Y1.5305
G01 X17.0715 Y1.5471
G01 X17.1141 Y1.5660
G01 X17.1555 Y1.5868
G01 X17.1958 Y1.6097
G01 X17.2350 Y1.6345
G01 X17.2728 Y1.6611
G01 X17.3094 Y1.6897
G01 X17.3446 Y1.7200
G01 X17.3781 Y1.7519
G01 X17.4101 Y1.7856
G01 X17.4404 Y1.8207
G01 X17.4689 Y1.8572
G01 X17.4956 Y1.8952
G01 X17.5204 Y1.9344
G01 X17.5433 Y1.9747
G01 X17.5640 Y2.0159
G01 X17.5828 Y2.0583
G01 X17.5996 Y2.1018
G01 X17.6141 Y2.1456
G01 X17.6265 Y2.1903
G01 X17.6366 Y2.2357
G01 X17.6446 Y2.2812
G01 X17.6503 Y2.3275
G01 X17.6537 Y2.3738
G01 X17.6548 Y2.4200
G01 X17.6537 Y2.4665
G01 X17.6502 Y2.5127
G01 X17.6446 Y2.5585
G01 X17.6366 Y2.6044
G01 X17.6265 Y2.6494
G01 X17.6142 Y2.6941
G01 X17.5995 Y2.7384
G01 X17.5829 Y2.7815
G01 X17.5640 Y2.8241
G01 X17.5433 Y2.8653
G01 X17.5204 Y2.9056
G01 X17.4955 Y2.9450
G01 X17.4689 Y2.9828
G01 X17.4404 Y3.0193
G01 X17.4100 Y3.0546
G01 X17.3781 Y3.0881
G01 X17.3446 Y3.1200
G01 X17.3093 Y3.1504
G01 X17.2728 Y3.1789
G01 X17.2350 Y3.2055
G01 X17.1956 Y3.2304
G01 X17.1555 Y3.2532
G01 X17.1141 Y3.2740
G01 X17.0715 Y3.2929
G01 X17.0282 Y3.3096
G01 X16.9844 Y3.3241
G01 X16.9397 Y3.3365
G01 X16.8942 Y3.3467
G01 X16.8488 Y3.3546
G01 X16.8027 Y3.3602
G01 X16.7562 Y3.3637
G01 X16.7100 Y3.3648
G01 X16.6638 Y3.3637
G01 X16.6173 Y3.3602
G01 X16.5712 Y3.3546
G01 X16.5257 Y3.3466
G01 X16.4803 Y3.3365
G01 X16.4359 Y3.3242
G01 X16.3998 Y3.3123
G01 X14.6960 Y5.0160
G01 X14.6813 Y5.0301
G01 X14.6502 Y5.0556
G01 X14.6167 Y5.0780
G01 X14.5989 Y5.0881
G01 X14.5626 Y5.1052
G01 X14.5438 Y5.1125
G01 X14.5051 Y5.1242
G01 X14.4655 Y5.1321
G01 X14.4452 Y5.1346
G01 X14.4251 Y5.1361
G01 X13.4483 Y5.1361
G01 X13.4081 Y5.1322
G01 X13.3685 Y5.1243
G01 X13.3299 Y5.1126
G01 X13.3109 Y5.1053
G01 X13.2923 Y5.0970
G01 X13.2567 Y5.0780
G01 X13.2232 Y5.0556
G01 X13.1919 Y5.0299
G01 X13.1774 Y5.0160
G01 X13.1594 Y4.9967
G01 X12.6921 Y4.9964
G01 X12.6896 Y4.9946
G01 X12.6887 Y4.9917
G01 X12.6887 Y4.4583
G01 X12.6901 Y4.4549
G01 X12.6937 Y4.4533
G00 Z1.0000
M05
G00 Z1.0000
G00 Z12.70
G00 X0.0 Y0.0

M02